; generated by PrusaSlicer 2.6.0+MacOS-x64 on 2023-10-24 at 13:42:13 UTC

; 

; external perimeters extrusion width = 0.45mm
; perimeters extrusion width = 0.45mm
; infill extrusion width = 0.45mm
; solid infill extrusion width = 0.45mm
; top infill extrusion width = 0.45mm
; support material extrusion width = 0.38mm
; first layer extrusion width = 0.42mm

M201 X500 Y500 Z100 E5000 ; sets maximum accelerations, mm/sec^2
M203 X500 Y500 Z10 E60 ; sets maximum feedrates, mm / sec
M204 S500 T1000 ; sets acceleration (S) and retract acceleration (R), mm/sec^2
M205 X8.00 Y8.00 Z0.40 E5.00 ; sets the jerk limits, mm/sec
M205 S0 T0 ; sets the minimum extruding and travel feed rate, mm/sec
;TYPE:Custom
G90 ; use absolute coordinates
M83 ; extruder relative mode
M140 S72 ; set final bed temp
M104 S150 ; set temporary nozzle temp to prevent oozing during homing
G4 S10 ; allow partial nozzle warmup
G28 ; home all axis
G1 Z50 F240
G1 X2 Y10 F3000
M104 S210 ; set final nozzle temp
M190 S72 ; wait for bed temp to stabilize
M109 S210 ; wait for nozzle temp to stabilize
G1 Z0.28 F240
G92 E0
G1 Y140 E10 F1500 ; prime the nozzle
G1 X2.3 F5000
G92 E0
G1 Y10 E10 F1200 ; prime the nozzle
G92 E0
G21 ; set units to millimeters
G90 ; use absolute coordinates
M83 ; use relative distances for extrusion
; Filament gcode
M107
;LAYER_CHANGE
;Z:0.2
;HEIGHT:0.2
;BEFORE_LAYER_CHANGE
G92 E0
;0.2


G1 E-8 F3600
G1 Z.2 F12000
;AFTER_LAYER_CHANGE
;0.2
G1 X86.272 Y46.066
G1 E8 F2400
M204 S500
;TYPE:Skirt/Brim
;WIDTH:0.42
G1 F1500
G1 X86.756 Y45.249 E.02977
G1 X87.714 Y44.264 E.04308
G1 X88.813 Y43.625 E.03986
G1 X90.01 Y43.319 E.03874
G1 X95.894 Y43.311 E.18449
G1 X96.34 Y43.388 E.01419
G1 X112.061 Y43.388 E.49292
G1 X112.509 Y43.307 E.01427
G1 X118.367 Y43.318 E.18367
G1 X118.757 Y43.388 E.01242
G1 X134.66 Y43.388 E.49863
G1 X135.106 Y43.308 E.01421
G1 X141.057 Y43.327 E.18659
G1 X142.341 Y43.689 E.04183
G1 X143.483 Y44.432 E.04272
G1 X144.463 Y45.563 E.04692
G1 X144.838 Y46.333 E.02685
G1 X145.067 Y47.17 E.02721
G1 X145.028 Y191.973 E4.5402
G1 X144.757 Y192.785 E.02684
G1 X144.341 Y193.54 E.02703
G1 X143.405 Y194.564 E.0435
G1 X142.176 Y195.299 E.0449
G1 X140.839 Y195.612 E.04305
G1 X89.526 Y195.526 E1.60889
G1 X88.713 Y195.256 E.02686
G1 X87.958 Y194.839 E.02704
G1 X86.934 Y193.903 E.0435
G1 X86.199 Y192.675 E.04487
G1 X85.886 Y191.339 E.04302
G1 X85.974 Y46.94 E4.52753
G1 X86.253 Y46.123 E.02707
G1 X86.609 Y46.245 F12000
G1 F1500
G1 X87.068 Y45.462 E.02846
G1 X87.965 Y44.546 E.0402
G1 X88.933 Y43.983 E.03511
G1 X90.035 Y43.696 E.03571
G1 X95.877 Y43.688 E.18317
G1 X96.306 Y43.765 E.01367
G1 X112.097 Y43.765 E.49512
G1 X112.527 Y43.685 E.01371
G1 X118.348 Y43.695 E.18251
G1 X118.721 Y43.765 E.0119
G1 X134.696 Y43.765 E.50088
G1 X135.124 Y43.685 E.01365
G1 X140.982 Y43.697 E.18367
G1 X142.162 Y44.022 E.03838
G1 X143.217 Y44.701 E.03934
G1 X144.135 Y45.751 E.04373
G1 X144.491 Y46.482 E.02549
G1 X144.696 Y47.244 E.02474
G1 X144.661 Y191.882 E4.53502
G1 X144.405 Y192.649 E.02535
G1 X144.022 Y193.337 E.02469
G1 X143.147 Y194.288 E.04052
G1 X142.01 Y194.96 E.04141
G1 X140.819 Y195.235 E.03833
G1 X89.616 Y195.159 E1.60544
G1 X88.849 Y194.904 E.02534
G1 X88.161 Y194.521 E.02469
G1 X87.21 Y193.645 E.04054
G1 X86.539 Y192.509 E.04137
G1 X86.264 Y191.318 E.03833
G1 X86.341 Y47.032 E4.52399
G1 X86.59 Y46.302 E.02418
G1 X86.944 Y46.421 F12000
G1 F1500
G1 X87.38 Y45.676 E.02707
G1 X88.215 Y44.829 E.03729
G1 X89.055 Y44.341 E.03046
G1 X90.061 Y44.073 E.03264
G1 X95.859 Y44.065 E.18179
G1 X96.27 Y44.142 E.01311
G1 X112.134 Y44.142 E.4974
G1 X112.546 Y44.062 E.01316
G1 X118.328 Y44.072 E.18129
G1 X118.683 Y44.142 E.01135
G1 X134.733 Y44.142 E.50324
G1 X135.143 Y44.062 E.0131
G1 X140.909 Y44.068 E.18079
G1 X141.985 Y44.357 E.03493
G1 X142.953 Y44.971 E.03594
G1 X143.807 Y45.939 E.04047
G1 X144.144 Y46.63 E.02411
G1 X144.326 Y47.316 E.02225
G1 X144.293 Y191.793 E4.52998
G1 X144.067 Y192.482 E.02274
G1 X143.704 Y193.133 E.02337
G1 X142.89 Y194.01 E.03752
G1 X141.846 Y194.619 E.0379
G1 X140.798 Y194.858 E.0337
G1 X89.705 Y194.791 E1.60199
G1 X89.017 Y194.565 E.02271
G1 X88.365 Y194.203 E.02338
G1 X87.488 Y193.389 E.03752
G1 X86.879 Y192.344 E.03792
G1 X86.641 Y191.297 E.03367
G1 X86.708 Y47.123 E4.52048
G1 X86.925 Y46.478 E.02134
G1 X87.282 Y46.598 F12000
G1 F1500
G1 X87.307 Y46.524 E.00245
G1 X87.69 Y45.891 E.0232
G1 X88.465 Y45.113 E.03443
G1 X89.178 Y44.698 E.02587
G1 X90.087 Y44.45 E.02954
G1 X95.841 Y44.442 E.18041
G1 X96.233 Y44.519 E.01253
G1 X112.173 Y44.519 E.49979
G1 X112.565 Y44.439 E.01254
G1 X118.307 Y44.449 E.18004
G1 X118.643 Y44.519 E.01076
G1 X134.773 Y44.519 E.50574
G1 X135.163 Y44.439 E.01248
G1 X140.838 Y44.439 E.17794
G1 X141.811 Y44.692 E.03152
G1 X142.69 Y45.243 E.03253
G1 X143.48 Y46.128 E.0372
G1 X143.796 Y46.778 E.02266
G1 X143.955 Y47.387 E.01973
G1 X143.925 Y191.704 E4.52496
G1 X143.715 Y192.346 E.02118
G1 X143.387 Y192.928 E.02095
G1 X142.635 Y193.732 E.03452
G1 X141.684 Y194.278 E.03438
G1 X140.778 Y194.481 E.02911
G1 X89.794 Y194.424 E1.59857
G1 X89.152 Y194.213 E.02119
G1 X88.57 Y193.886 E.02093
G1 X87.767 Y193.133 E.03452
G1 X87.221 Y192.182 E.03438
G1 X87.018 Y191.277 E.02908
G1 X87.075 Y47.214 E4.51699
G1 X87.263 Y46.655 E.01849
G1 X87.62 Y46.775 F12000
G1 F1500
G1 X87.658 Y46.664 E.00368
G1 X87.999 Y46.108 E.02045
G1 X88.713 Y45.398 E.03157
G1 X89.304 Y45.054 E.02144
G1 X90.114 Y44.827 E.02638
G1 X95.821 Y44.819 E.17894
G1 X96.194 Y44.896 E.01194
G1 X112.214 Y44.896 E.5023
G1 X112.586 Y44.816 E.01193
G1 X118.284 Y44.826 E.17866
G1 X118.6 Y44.896 E.01015
G1 X134.814 Y44.896 E.50838
G1 X135.184 Y44.816 E.01187
G1 X140.813 Y44.816 E.17649
G1 X141.686 Y45.049 E.02833
G1 X142.428 Y45.515 E.02747
G1 X143.153 Y46.318 E.03392
G1 X143.449 Y46.925 E.02117
G1 X143.583 Y47.457 E.0172
G1 X143.558 Y191.615 E4.51997
G1 X143.362 Y192.21 E.01964
G1 X143.071 Y192.721 E.01844
G1 X142.381 Y193.451 E.0315
G1 X141.524 Y193.935 E.03086
G1 X140.758 Y194.104 E.02459
G1 X89.883 Y194.056 E1.59515
G1 X89.288 Y193.861 E.01963
G1 X88.777 Y193.57 E.01844
G1 X88.047 Y192.88 E.0315
G1 X87.563 Y192.022 E.03089
G1 X87.395 Y191.257 E.02456
G1 X87.442 Y47.305 E4.51351
G1 X87.601 Y46.832 E.01565
G1 X87.956 Y46.948 F12000
G1 F1500
G1 X87.991 Y46.842 E.0035
G1 X88.308 Y46.325 E.01901
G1 X88.961 Y45.683 E.02871
G1 X89.431 Y45.41 E.01704
G1 X90.141 Y45.204 E.02318
G1 X95.8 Y45.197 E.17743
G1 X96.152 Y45.273 E.01129
G1 X112.259 Y45.273 E.50502
G1 X112.608 Y45.193 E.01123
G1 X118.26 Y45.203 E.17721
G1 X118.554 Y45.273 E.00948
G1 X134.858 Y45.273 E.5112
G1 X135.207 Y45.193 E.01123
G1 X140.787 Y45.193 E.17496
G1 X141.558 Y45.405 E.02507
G1 X142.167 Y45.788 E.02256
G1 X142.826 Y46.508 E.0306
G1 X143.101 Y47.071 E.01965
G1 X143.212 Y47.524 E.01462
G1 X143.19 Y191.526 E4.51508
G1 X143.01 Y192.073 E.01806
G1 X142.757 Y192.512 E.01589
G1 X142.129 Y193.169 E.0285
G1 X141.366 Y193.592 E.02735
G1 X140.739 Y193.727 E.02011
G1 X89.973 Y193.689 E1.59173
G1 X89.425 Y193.509 E.01809
G1 X88.987 Y193.255 E.01588
G1 X88.329 Y192.628 E.0285
G1 X87.907 Y191.865 E.02734
G1 X87.772 Y191.238 E.02011
G1 X87.81 Y47.394 E4.51013
G1 X87.937 Y47.005 E.01283
G1 X88.296 Y47.123 F12000
G1 F1500
G1 X88.342 Y46.982 E.00465
G1 X88.615 Y46.545 E.01616
G1 X89.206 Y45.97 E.02585
G1 X89.561 Y45.764 E.01287
G1 X90.17 Y45.581 E.01994
G1 X95.777 Y45.574 E.1758
G1 X96.107 Y45.65 E.01062
G1 X112.306 Y45.65 E.50791
G1 X112.632 Y45.57 E.01052
G1 X118.234 Y45.58 E.17565
G1 X118.503 Y45.65 E.00872
G1 X134.906 Y45.65 E.5143
G1 X135.231 Y45.57 E.01049
G1 X140.76 Y45.57 E.17336
G1 X141.428 Y45.759 E.02177
G1 X141.908 Y46.063 E.01781
G1 X142.5 Y46.699 E.02724
G1 X142.752 Y47.217 E.01806
G1 X142.84 Y47.588 E.01196
G1 X142.823 Y191.437 E4.51028
G1 X142.659 Y191.936 E.01647
G1 X142.444 Y192.3 E.01326
G1 X141.879 Y192.886 E.02552
G1 X141.212 Y193.247 E.02378
G1 X140.72 Y193.35 E.01576
G1 X90.062 Y193.321 E1.58835
G1 X89.563 Y193.157 E.01647
G1 X89.198 Y192.942 E.01328
G1 X88.613 Y192.377 E.0255
G1 X88.252 Y191.711 E.02375
G1 X88.149 Y191.219 E.01576
G1 X88.177 Y47.483 E4.50674
G1 X88.277 Y47.18 E.01
G1 X88.635 Y47.298 F12000
G1 F1500
G1 X88.692 Y47.124 E.00574
G1 X88.92 Y46.769 E.01323
G1 X89.451 Y46.258 E.02311
G1 X89.695 Y46.117 E.00884
G1 X90.201 Y45.958 E.01663
G1 X95.753 Y45.951 E.17408
G1 X96.059 Y46.028 E.00989
G1 X112.357 Y46.028 E.51101
G1 X112.658 Y45.947 E.00977
G1 X118.204 Y45.957 E.17389
G1 X118.447 Y46.028 E.00794
G1 X134.957 Y46.028 E.51766
G1 X135.257 Y45.947 E.00974
G1 X140.732 Y45.947 E.17166
G1 X141.295 Y46.113 E.0184
G1 X141.651 Y46.34 E.01324
G1 X142.174 Y46.891 E.02382
G1 X142.403 Y47.361 E.01639
G1 X142.467 Y47.649 E.00925
G1 X142.455 Y191.348 E4.50558
G1 X142.307 Y191.797 E.01482
G1 X142.133 Y192.086 E.01058
G1 X141.631 Y192.6 E.02253
G1 X141.062 Y192.9 E.02017
G1 X140.702 Y192.972 E.01151
G1 X90.151 Y192.953 E1.58499
G1 X89.702 Y192.806 E.01481
G1 X89.413 Y192.632 E.01058
G1 X88.898 Y192.13 E.02255
G1 X88.599 Y191.561 E.02015
G1 X88.526 Y191.201 E.01152
G1 X88.545 Y47.572 E4.50339
G1 X88.616 Y47.355 E.00716
G1 X88.975 Y47.472 F12000
G1 F1500
G1 X89.043 Y47.264 E.00686
G1 X89.198 Y47.023 E.00898
G1 X89.664 Y46.569 E.0204
G1 X89.836 Y46.467 E.00627
G1 X90.233 Y46.335 E.01312
G1 X95.726 Y46.328 E.17223
G1 X96.006 Y46.405 E.00911
G1 X112.414 Y46.405 E.51446
G1 X112.687 Y46.324 E.00893
G1 X118.169 Y46.334 E.17188
G1 X118.383 Y46.405 E.00707
G1 X135.014 Y46.405 E.52145
G1 X135.287 Y46.324 E.00893
G1 X140.702 Y46.324 E.16978
G1 X141.158 Y46.465 E.01497
G1 X141.396 Y46.618 E.00887
G1 X141.848 Y47.084 E.02036
G1 X142.053 Y47.504 E.01465
G1 X142.094 Y47.705 E.00643
G1 X142.087 Y191.258 E4.501
G1 X141.957 Y191.657 E.01316
G1 X141.825 Y191.867 E.00778
G1 X141.386 Y192.312 E.0196
G1 X140.917 Y192.551 E.0165
G1 X140.685 Y192.595 E.0074
G1 X90.24 Y192.586 E1.58167
G1 X89.842 Y192.455 E.01314
G1 X89.631 Y192.324 E.00779
G1 X89.186 Y191.884 E.01962
G1 X88.947 Y191.416 E.01648
G1 X88.903 Y191.184 E.0074
G1 X88.913 Y47.661 E4.50006
G1 X88.956 Y47.529 E.00435
G1 X89.314 Y47.647 F12000
G1 F1500
G1 X89.393 Y47.406 E.00795
G1 X89.477 Y47.277 E.00483
G1 X89.882 Y46.877 E.01785
G1 X89.985 Y46.814 E.00379
G1 X90.268 Y46.712 E.00943
G1 X95.696 Y46.705 E.17019
G1 X95.947 Y46.782 E.00823
G1 X112.478 Y46.782 E.51832
G1 X112.72 Y46.701 E.008
G1 X118.08 Y46.701 E.16806
G1 X118.322 Y46.782 E.008
G1 X135.078 Y46.782 E.52537
G1 X135.32 Y46.701 E.008
G1 X140.671 Y46.701 E.16778
G1 X141.015 Y46.814 E.01135
G1 X141.144 Y46.899 E.00484
G1 X141.524 Y47.278 E.01683
G1 X141.701 Y47.642 E.01269
G1 X141.72 Y47.751 E.00347
G1 X141.72 Y191.169 E4.49677
G1 X141.607 Y191.513 E.01135
G1 X141.522 Y191.643 E.00487
G1 X141.143 Y192.022 E.01681
G1 X140.779 Y192.199 E.01269
G1 X140.671 Y192.218 E.00344
G1 X90.329 Y192.218 E1.57844
G1 X89.985 Y192.105 E.01135
G1 X89.856 Y192.021 E.00483
G1 X89.476 Y191.641 E.01685
G1 X89.299 Y191.277 E.01269
G1 X89.28 Y191.169 E.00344
G1 X89.28 Y47.75 E4.4968
G1 X89.296 Y47.704 E.00153
G1 X89.657 Y47.786 F12000
G1 F1500
G1 X89.757 Y47.531 E.00859
G1 X90.11 Y47.178 E.01565
G1 X90.364 Y47.078 E.00856
G1 X95.65 Y47.078 E.16574
G1 X95.863 Y47.159 E.00715
G1 X112.554 Y47.159 E.52333
G1 X112.76 Y47.078 E.00694
G1 X118.04 Y47.078 E.16555
G1 X118.246 Y47.159 E.00694
G1 X135.154 Y47.159 E.53014
G1 X135.36 Y47.078 E.00694
G1 X140.636 Y47.078 E.16543
G1 X140.89 Y47.178 E.00856
G1 X141.233 Y47.521 E.01521
G1 X141.336 Y47.74 E.00759
G1 X141.343 Y191.134 E4.49602
G1 X141.243 Y191.388 E.00856
G1 X140.9 Y191.732 E.01523
G1 X140.682 Y191.835 E.00756
G1 X90.364 Y191.841 E1.57769
G1 X90.11 Y191.742 E.00855
G1 X89.767 Y191.398 E.01523
G1 X89.664 Y191.18 E.00756
G1 X89.657 Y47.846 E4.49414
G1 X90.034 Y47.846 F12000
G1 F1500
G1 X90.063 Y47.758 E.00291
G1 X90.337 Y47.484 E.01215
G1 X90.406 Y47.456 E.00233
G1 X95.594 Y47.456 E.16267
G1 X95.663 Y47.484 E.00233
G1 X95.715 Y47.536 E.00231
G1 X112.652 Y47.536 E.53105
G1 X112.813 Y47.456 E.00564
G1 X117.987 Y47.456 E.16223
G1 X118.148 Y47.536 E.00564
G1 X135.252 Y47.536 E.53628
G1 X135.413 Y47.456 E.00564
G1 X140.594 Y47.456 E.16245
G1 X140.663 Y47.484 E.00233
G1 X140.937 Y47.758 E.01215
G1 X140.966 Y47.827 E.00235
G1 X140.966 Y191.092 E4.49197
G1 X140.937 Y191.161 E.00235
G1 X140.663 Y191.435 E.01215
G1 X140.594 Y191.464 E.00235
G1 X90.406 Y191.464 E1.57361
G1 X90.337 Y191.435 E.00235
G1 X90.063 Y191.161 E.01215
G1 X90.034 Y191.092 E.00235
G1 X90.034 Y47.906 E4.4895
G1 X90.411 Y47.943 F12000
G1 F1500
G1 X90.522 Y47.833 E.0049
G1 X95.478 Y47.833 E.15539
G1 X95.558 Y47.913 E.00355
G1 X112.842 Y47.913 E.54193
G1 X112.922 Y47.833 E.00355
G1 X117.878 Y47.833 E.15539
G1 X117.958 Y47.913 E.00355
G1 X135.442 Y47.913 E.5482
G1 X135.522 Y47.833 E.00355
G1 X140.478 Y47.833 E.15539
G1 X140.589 Y47.943 E.0049
G1 X140.589 Y190.977 E4.48473
G1 X140.478 Y191.087 E.0049
G1 X90.522 Y191.087 E1.56634
G1 X90.411 Y190.977 E.0049
G1 X90.411 Y48.003 E4.48285
G1 E-5.6 F3600
;WIPE_START
G1 F9600
G1 X90.522 Y47.833 E-.07233
G1 X95.478 Y47.833 E-1.76558
G1 X95.558 Y47.913 E-.04031
G1 X97.023 Y47.913 E-.52178
;WIPE_END
G1 X116.5 Y24.363 F12000
G1 E8 F2400
;TYPE:Support material
G1 F1500
G1 X116.991 Y24.414 E.01548
G1 X118.193 Y24.714 E.03884
G1 X119.342 Y25.178 E.03885
G1 X120.415 Y25.798 E.03886
G1 X121.392 Y26.561 E.03887
G1 X122.253 Y27.452 E.03885
G1 X122.981 Y28.455 E.03886
G1 X123.563 Y29.549 E.03885
G1 X123.987 Y30.713 E.03884
G1 X124.244 Y31.925 E.03885
G1 X124.331 Y33.161 E.03885
G1 X124.244 Y34.398 E.03888
G1 X123.987 Y35.61 E.03885
G1 X123.563 Y36.774 E.03884
G1 X122.981 Y37.868 E.03885
G1 X122.253 Y38.871 E.03886
G1 X121.392 Y39.762 E.03885
G1 X120.804 Y40.222 E.02341
G1 X120.415 Y40.525 E.01546
G1 X119.342 Y41.145 E.03886
G1 X118.193 Y41.609 E.03885
G1 X116.991 Y41.909 E.03884
G1 X115.759 Y42.038 E.03884
G1 X114.52 Y41.995 E.03887
G1 X113.3 Y41.78 E.03884
G1 X112.121 Y41.397 E.03887
G1 X111.678 Y41.181 E.01545
G1 X111.007 Y40.854 E.0234
G1 X109.98 Y40.161 E.03885
G1 X109.059 Y39.332 E.03885
G1 X108.263 Y38.382 E.03886
G1 X107.606 Y37.331 E.03886
G1 X107.102 Y36.199 E.03885
G1 X106.76 Y35.008 E.03885
G1 X106.588 Y33.781 E.03885
G1 X106.588 Y32.542 E.03885
G1 X106.76 Y31.315 E.03885
G1 X107.102 Y30.124 E.03885
G1 X107.606 Y28.992 E.03885
G1 X108.263 Y27.941 E.03886
G1 X109.059 Y26.991 E.03886
G1 X109.98 Y26.162 E.03885
G1 X111.007 Y25.469 E.03885
G1 X112.121 Y24.926 E.03886
G1 X113.3 Y24.543 E.03887
G1 X114.52 Y24.328 E.03884
G1 X115.759 Y24.285 E.03887
G1 X116.444 Y24.357 E.0216
G1 X123.88 Y35.298 F12000
G1 F1500
G1 X123.88 Y31.841 E.10839
G1 X123.66 Y30.807 E.03315
G1 X123.461 Y30.26 E.01825
G1 X123.461 Y36.063 E.18195
G1 X123.252 Y36.636 E.01912
G1 X123.042 Y37.032 E.01405
G1 X123.042 Y29.291 E.24271
G1 X122.693 Y28.635 E.0233
G1 X122.623 Y28.539 E.00373
G1 X122.623 Y37.784 E.28987
G1 X122.204 Y38.361 E.02236
G1 X122.204 Y27.962 E.32605
G1 X121.992 Y27.671 E.01129
G1 X121.785 Y27.456 E.00936
G1 X121.785 Y38.867 E.35778
G1 X121.366 Y39.301 E.01891
G1 X121.366 Y27.022 E.385
G1 X121.164 Y26.814 E.00909
G1 X120.947 Y26.644 E.00864
G1 X120.947 Y39.679 E.4087
G1 X120.528 Y40.007 E.01668
G1 X120.528 Y26.316 E.42927
G1 X120.225 Y26.08 E.01204
G1 X120.109 Y26.013 E.0042
G1 X120.109 Y40.31 E.44827
G1 X119.69 Y40.552 E.01517
G1 X119.69 Y25.771 E.46345
G1 X119.271 Y25.529 E.01517
G1 X119.271 Y40.794 E.47862
G1 X118.852 Y40.977 E.01434
G1 X118.852 Y25.346 E.4901
G1 X118.433 Y25.177 E.01417
G1 X118.433 Y41.146 E.5007
G1 X118.014 Y41.304 E.01404
G1 X118.014 Y25.019 E.5106
G1 X117.595 Y24.915 E.01354
G1 X117.595 Y41.408 E.51713
G1 X117.176 Y41.513 E.01354
G1 X117.176 Y24.81 E.52371
G1 X116.932 Y24.749 E.00789
G1 X116.757 Y24.731 E.00552
G1 X116.757 Y41.592 E.52866
G1 X116.338 Y41.636 E.01321
G1 X116.338 Y24.687 E.53142
G1 X115.919 Y24.643 E.01321
G1 X115.919 Y41.68 E.53418
G1 X115.747 Y41.698 E.00542
G1 X115.5 Y41.69 E.00775
G1 X115.5 Y24.633 E.53481
G1 X115.081 Y24.648 E.01315
G1 X115.081 Y41.675 E.53387
G1 X114.662 Y41.66 E.01315
G1 X114.662 Y24.663 E.53293
G1 X114.243 Y24.721 E.01326
G1 X114.243 Y41.602 E.52929
G1 X113.824 Y41.528 E.01334
G1 X113.824 Y24.795 E.52465
G1 X113.405 Y24.869 E.01334
