; generated by PrusaSlicer 2.5.0+MacOS-x64 on 2023-06-01 at 07:31:15 UTC

; 

; external perimeters extrusion width = 0.45mm
; perimeters extrusion width = 0.45mm
; infill extrusion width = 0.45mm
; solid infill extrusion width = 0.45mm
; top infill extrusion width = 0.40mm
; first layer extrusion width = 0.42mm

; external perimeters extrusion width = 0.45mm
; perimeters extrusion width = 0.45mm
; infill extrusion width = 0.45mm
; solid infill extrusion width = 0.45mm
; top infill extrusion width = 0.40mm
; first layer extrusion width = 0.42mm

; external perimeters extrusion width = 0.45mm
; perimeters extrusion width = 0.45mm
; infill extrusion width = 0.45mm
; solid infill extrusion width = 0.45mm
; top infill extrusion width = 0.40mm
; first layer extrusion width = 0.42mm

; external perimeters extrusion width = 0.45mm
; perimeters extrusion width = 0.45mm
; infill extrusion width = 0.45mm
; solid infill extrusion width = 0.45mm
; top infill extrusion width = 0.40mm
; first layer extrusion width = 0.42mm

M107
M190 S65 ; set bed temperature and wait for it to be reached
M104 S205 ; set temperature
;TYPE:Custom
G28 ; home all axes
G1 Z5 F5000 ; lift nozzle
G0 F3000 Y50 ;avoid prime blob
M109 S205 ; set temperature and wait for it to be reached
G21 ; set units to millimeters
G90 ; use absolute coordinates
M82 ; use absolute distances for extrusion
G92 E0
; Filament gcode
M107
;LAYER_CHANGE
;Z:0.3
;HEIGHT:0.3
G1 Z.3 F7800
G1 E-2 F2400
G92 E0
G1 X23.392 Y30.314 F7800
G1 E2 F2400
;TYPE:Skirt/Brim
;WIDTH:0.42
G1 F1800
G1 X25.235 Y29.031 E2.03756
G1 X27.886 Y28.453 E2.08293
G1 X197.028 Y28.453 E4.91158
G1 X199.238 Y28.849 E4.94914
G1 X201.522 Y30.314 E4.99451
G1 X204.451 Y33.243 E5.06378
G1 X205.733 Y35.087 E5.10134
G1 X206.312 Y37.662 E5.14548
G1 X207.478 Y136.597 E6.80013
G1 X207.916 Y186.239 E7.63036
G1 X207.916 Y209.437 E8.01831
G1 X207.519 Y211.648 E8.05587
G1 X206.055 Y213.931 E8.10124
G1 X203.126 Y216.86 E8.17051
G1 X201.282 Y218.143 E8.20807
G1 X198.632 Y218.722 E8.25344
G1 X29.49 Y218.722 E11.08209
G1 X27.279 Y218.325 E11.11965
G1 X24.995 Y216.86 E11.16502
G1 X22.066 Y213.931 E11.23429
G1 X20.784 Y212.088 E11.27185
G1 X20.206 Y209.557 E11.31526
G1 X18.342 Y110.24 E12.97648
G1 X18.341 Y86.979 E13.36549
G1 X18.601 Y37.704 E14.18955
G1 X19.01 Y35.495 E14.22711
G1 X20.463 Y33.243 E14.27193
G1 X23.349 Y30.356 E14.3402
G1 E12.3402 F2400
G92 E0
G1 X26.988 Y36.041 F7800
G1 E2 F2400
G1 F1800
G1 X28.014 Y35.385 E2.02036
G1 X29.185 Y35.047 E2.04075
G1 X55.195 Y35.01 E2.47572
G1 X62.874 Y36.372 E2.60615
G1 X69.874 Y37.279 E2.72418
G1 X76.906 Y37.824 E2.84214
G1 X84.019 Y38.007 E2.96113
G1 X140.895 Y38.007 E3.9123
G1 X148.008 Y37.824 E4.03129
G1 X155.04 Y37.279 E4.14925
G1 X162.041 Y36.372 E4.2673
G1 X169.752 Y35.007 E4.39827
G1 X195.589 Y35.027 E4.83035
G1 X196.466 Y35.216 E4.84536
G1 X197.347 Y35.601 E4.86142
G1 X198.608 Y36.66 E4.88898
G1 X199.382 Y37.868 E4.91297
G1 X199.748 Y39.272 E4.93723
G1 X199.717 Y59.613 E5.27741
G1 X199.512 Y60.427 E5.29144
G1 X199.162 Y61.203 E5.30568
G1 X198.105 Y62.46 E5.33314
G1 X196.9 Y63.231 E5.35707
G1 X195.728 Y63.569 E5.37746
G1 X169.752 Y63.609 E5.81188
G1 X162.041 Y62.244 E5.94285
G1 X155.04 Y61.337 E6.0609
G1 X148.008 Y60.792 E6.17885
G1 X140.895 Y60.609 E6.29785
G1 X84.019 Y60.609 E7.24901
G1 X76.906 Y60.792 E7.368
G1 X69.874 Y61.337 E7.48596
G1 X62.873 Y62.244 E7.60401
G1 X55.163 Y63.609 E7.73496
G1 X29.527 Y63.609 E8.16368
G1 X28.544 Y63.43 E8.18039
G1 X27.586 Y63.026 E8.19778
G1 X26.307 Y61.958 E8.22565
G1 X25.534 Y60.752 E8.24961
G1 X25.196 Y59.58 E8.27001
G1 X25.185 Y39.098 E8.61253
G1 X25.383 Y38.243 E8.62721
G1 X25.748 Y37.421 E8.64225
G1 X26.808 Y36.157 E8.66984
G1 X26.938 Y36.074 E8.67242
G1 X27.124 Y36.368 F7800
G1 F1800
G1 X28.181 Y35.7 E8.69333
G1 X29.258 Y35.396 E8.71205
G1 X55.179 Y35.366 E9.14554
G1 X62.82 Y36.724 E9.27532
G1 X69.837 Y37.633 E9.39365
G1 X76.888 Y38.179 E9.51192
G1 X84.014 Y38.363 E9.63114
G1 X140.899 Y38.363 E10.58246
G1 X148.026 Y38.179 E10.70168
G1 X155.077 Y37.633 E10.81995
G1 X162.094 Y36.724 E10.93829
G1 X169.768 Y35.363 E11.06862
G1 X195.569 Y35.383 E11.50011
G1 X196.372 Y35.559 E11.51385
G1 X197.179 Y35.915 E11.52861
G1 X198.357 Y36.913 E11.55443
G1 X199.066 Y38.034 E11.57661
G1 X199.392 Y39.294 E11.59837
G1 X199.367 Y59.547 E11.93708
G1 X199.171 Y60.324 E11.95047
G1 X198.849 Y61.033 E11.96349
G1 X197.852 Y62.209 E11.98928
G1 X196.733 Y62.916 E12.01142
G1 X195.656 Y63.22 E12.03013
G1 X169.767 Y63.253 E12.46308
G1 X162.094 Y61.893 E12.5934
G1 X155.077 Y60.983 E12.71174
G1 X148.026 Y60.437 E12.83001
G1 X140.899 Y60.253 E12.94923
G1 X84.014 Y60.253 E13.90055
G1 X76.888 Y60.437 E14.01977
G1 X69.837 Y60.983 E14.13803
G1 X62.819 Y61.893 E14.25638
G1 X55.147 Y63.253 E14.38668
G1 X29.544 Y63.253 E14.81486
G1 X28.628 Y63.084 E14.83043
G1 X27.75 Y62.71 E14.84639
G1 X26.557 Y61.704 E14.87249
G1 X25.849 Y60.584 E14.89465
G1 X25.545 Y59.507 E14.91337
G1 X25.536 Y39.158 E15.25367
G1 X25.725 Y38.34 E15.26772
G1 X26.062 Y37.59 E15.28147
G1 X27.073 Y36.4 E15.30758
G1 X27.313 Y36.66 F7800
G1 F1800
G1 X28.346 Y36.016 E15.32795
G1 X29.329 Y35.745 E15.34499
G1 X55.164 Y35.721 E15.77704
G1 X62.766 Y37.075 E15.90617
G1 X69.8 Y37.987 E16.0248
G1 X76.869 Y38.534 E16.14337
G1 X84.01 Y38.719 E16.26282
G1 X140.904 Y38.719 E17.2143
G1 X148.044 Y38.534 E17.33375
G1 X155.113 Y37.987 E17.45232
G1 X162.148 Y37.075 E17.57096
G1 X169.783 Y35.718 E17.70064
G1 X195.549 Y35.738 E18.13153
G1 X196.275 Y35.902 E18.14398
G1 X197.01 Y36.229 E18.15744
G1 X198.105 Y37.165 E18.18152
G1 X198.75 Y38.199 E18.2019
G1 X199.037 Y39.316 E18.22118
G1 X199.017 Y59.483 E18.55845
G1 X198.841 Y60.192 E18.57066
G1 X198.535 Y60.862 E18.58298
G1 X197.6 Y61.956 E18.60705
G1 X196.567 Y62.601 E18.62741
G1 X195.585 Y62.871 E18.64445
G1 X169.783 Y62.898 E19.07596
G1 X162.148 Y61.541 E19.20562
G1 X155.113 Y60.629 E19.32426
G1 X148.044 Y60.082 E19.44283
G1 X140.904 Y59.898 E19.56228
G1 X84.01 Y59.898 E20.51376
G1 X76.869 Y60.082 E20.63321
G1 X69.8 Y60.629 E20.75178
G1 X62.765 Y61.541 E20.87042
G1 X55.131 Y62.898 E21.00008
G1 X29.56 Y62.898 E21.42772
G1 X28.714 Y62.739 E21.44212
G1 X27.916 Y62.394 E21.45665
G1 X26.809 Y61.452 E21.48096
G1 X26.164 Y60.419 E21.50133
G1 X25.894 Y59.436 E21.51837
G1 X25.887 Y39.217 E21.85651
G1 X26.057 Y38.469 E21.86934
G1 X26.376 Y37.759 E21.88235
G1 X27.274 Y36.706 E21.9055
G1 X27.543 Y36.938 F7800
G1 F1800
G1 X28.51 Y36.333 E21.92457
G1 X29.398 Y36.095 E21.93995
G1 X55.148 Y36.077 E22.37058
G1 X62.712 Y37.427 E22.49907
G1 X69.764 Y38.341 E22.61799
G1 X76.851 Y38.89 E22.73687
G1 X84.005 Y39.074 E22.85655
G1 X140.909 Y39.074 E23.80818
G1 X148.063 Y38.89 E23.92786
G1 X155.15 Y38.341 E24.04674
G1 X162.203 Y37.427 E24.16567
G1 X169.799 Y36.074 E24.2947
G1 X195.528 Y36.094 E24.72498
G1 X196.177 Y36.244 E24.73613
G1 X196.84 Y36.543 E24.74829
G1 X197.851 Y37.415 E24.77063
G1 X198.433 Y38.361 E24.78919
G1 X198.681 Y39.338 E24.80604
G1 X198.666 Y59.42 E25.14188
G1 X198.51 Y60.06 E25.1529
G1 X198.222 Y60.691 E25.16451
G1 X197.349 Y61.703 E25.18685
G1 X196.404 Y62.284 E25.2054
G1 X195.516 Y62.522 E25.22078
G1 X169.798 Y62.542 E25.65088
G1 X162.203 Y61.189 E25.7799
G1 X155.15 Y60.276 E25.89883
G1 X148.063 Y59.727 E26.01771
G1 X140.909 Y59.542 E26.13739
G1 X84.005 Y59.542 E27.08902
G1 X76.851 Y59.727 E27.2087
G1 X69.764 Y60.276 E27.32757
G1 X62.711 Y61.189 E27.44651
G1 X55.116 Y62.542 E27.57552
G1 X29.578 Y62.542 E28.00261
G1 X28.801 Y62.393 E28.01583
G1 X28.084 Y62.08 E28.02893
G1 X27.063 Y61.201 E28.05145
G1 X26.481 Y60.256 E28.07002
G1 X26.243 Y59.367 E28.08539
G1 X26.239 Y39.276 E28.42138
G1 X26.4 Y38.566 E28.43357
G1 X26.688 Y37.93 E28.44525
G1 X27.504 Y36.983 E28.46615
G1 X27.772 Y37.217 F7800
G1 F1800
G1 X27.813 Y37.169 E28.4672
G1 X28.67 Y36.651 E28.48395
G1 X29.465 Y36.445 E28.49768
G1 X55.132 Y36.433 E28.92693
G1 X62.657 Y37.779 E29.05477
G1 X69.727 Y38.695 E29.17399
G1 X76.833 Y39.245 E29.29317
G1 X84 Y39.43 E29.41308
G1 X140.913 Y39.43 E30.36487
G1 X148.081 Y39.245 E30.48478
G1 X155.186 Y38.695 E30.60396
G1 X162.257 Y37.778 E30.72319
G1 X169.814 Y36.43 E30.85158
G1 X195.506 Y36.449 E31.28123
G1 X196.077 Y36.586 E31.29105
G1 X196.669 Y36.855 E31.30192
G1 X197.596 Y37.664 E31.3225
G1 X198.114 Y38.522 E31.33926
G1 X198.326 Y39.359 E31.3537
G1 X198.315 Y59.358 E31.68814
G1 X198.179 Y59.928 E31.69796
G1 X197.91 Y60.52 E31.70883
G1 X197.1 Y61.447 E31.72941
G1 X196.243 Y61.965 E31.74616
G1 X195.449 Y62.172 E31.75988
G1 X169.814 Y62.187 E32.1886
G1 X162.257 Y60.838 E32.31697
G1 X155.186 Y59.922 E32.4362
G1 X148.081 Y59.371 E32.55538
G1 X140.913 Y59.187 E32.6753
G1 X84 Y59.187 E33.62708
G1 X76.833 Y59.371 E33.74699
G1 X69.727 Y59.922 E33.86617
G1 X62.657 Y60.838 E33.9854
G1 X55.1 Y62.187 E34.11377
G1 X29.594 Y62.187 E34.54032
G1 X28.925 Y62.059 E34.55171
G1 X28.252 Y61.765 E34.564
G1 X27.318 Y60.952 E34.5847
G1 X26.8 Y60.095 E34.60146
G1 X26.593 Y59.301 E34.61518
G1 X26.59 Y39.334 E34.94909
G1 X26.732 Y38.695 E34.96003
G1 X27.001 Y38.101 E34.97096
G1 X27.732 Y37.262 E34.98956
G1 X27.998 Y37.496 F7800
G1 F1800
G1 X28.06 Y37.426 E34.99113
G1 X28.828 Y36.97 E35.00606
G1 X29.529 Y36.795 E35.01814
G1 X55.117 Y36.788 E35.44606
G1 X62.603 Y38.13 E35.57325
G1 X69.691 Y39.048 E35.69277
G1 X76.814 Y39.6 E35.81226
G1 X83.996 Y39.785 E35.9324
G1 X140.918 Y39.785 E36.88434
G1 X148.099 Y39.6 E37.00448
G1 X155.223 Y39.048 E37.12397
G1 X162.311 Y38.13 E37.24349
G1 X169.83 Y36.785 E37.37123
G1 X195.483 Y36.805 E37.80025
G1 X195.974 Y36.927 E37.8087
G1 X196.495 Y37.167 E37.8183
G1 X197.339 Y37.912 E37.83712
G1 X197.794 Y38.679 E37.85205
G1 X197.975 Y39.422 E37.86483
G1 X197.96 Y59.335 E38.19784
G1 X197.838 Y59.826 E38.2063
G1 X197.598 Y60.347 E38.2159
G1 X196.853 Y61.19 E38.23471
G1 X196.086 Y61.646 E38.24964
G1 X195.385 Y61.821 E38.26172
G1 X169.829 Y61.831 E38.6891
G1 X162.311 Y60.486 E38.81683
G1 X155.223 Y59.568 E38.93635
G1 X148.099 Y59.016 E39.05584
G1 X140.918 Y58.831 E39.17598
G1 X83.996 Y58.831 E40.12792
G1 X76.814 Y59.016 E40.24806
G1 X69.691 Y59.568 E40.36755
G1 X62.603 Y60.486 E40.48708
G1 X55.084 Y61.831 E40.6148
G1 X29.612 Y61.831 E41.04079
G1 X29.014 Y61.714 E41.05098
G1 X28.422 Y61.451 E41.06181
G1 X27.575 Y60.705 E41.0807
G1 X27.119 Y59.937 E41.09563
G1 X26.943 Y59.236 E41.10771
G1 X26.942 Y39.39 E41.43961
G1 X27.063 Y38.824 E41.44928
G1 X27.314 Y38.272 E41.45943
G1 X27.959 Y37.541 E41.47572
G1 X28.223 Y37.778 F7800
G1 F1800
G1 X28.306 Y37.685 E41.4778
G1 X28.983 Y37.292 E41.4909
G1 X29.591 Y37.145 E41.50135
G1 X55.101 Y37.144 E41.92797
G1 X62.549 Y38.482 E42.05452
G1 X69.654 Y39.402 E42.17434
G1 X76.796 Y39.956 E42.29413
G1 X83.991 Y40.141 E42.4145
G1 X140.922 Y40.141 E43.36659
G1 X148.118 Y39.956 E43.48696
G1 X155.26 Y39.402 E43.60676
G1 X162.365 Y38.482 E43.72658
G1 X169.846 Y37.141 E43.85367
G1 X195.46 Y37.161 E44.28203
G1 X195.868 Y37.266 E44.28908
G1 X196.321 Y37.478 E44.29744
G1 X197.08 Y38.157 E44.31447
G1 X197.473 Y38.834 E44.32756
G1 X197.624 Y39.482 E44.33869
G1 X197.604 Y59.311 E44.67031
G1 X197.499 Y59.719 E44.67736
G1 X197.287 Y60.172 E44.68571
G1 X196.608 Y60.931 E44.70275
G1 X195.931 Y61.325 E44.71585
G1 X195.323 Y61.471 E44.72631
G1 X169.845 Y61.475 E45.15238
G1 X162.365 Y60.135 E45.27947
G1 X155.26 Y59.214 E45.39929
G1 X148.118 Y58.661 E45.51909
G1 X140.922 Y58.475 E45.63946
G1 X83.991 Y58.475 E46.59155
G1 X76.796 Y58.661 E46.71192
G1 X69.654 Y59.214 E46.83171
G1 X62.548 Y60.135 E46.95154
G1 X55.068 Y61.475 E47.07862
G1 X29.63 Y61.475 E47.50404
G1 X29.104 Y61.37 E47.513
G1 X28.594 Y61.139 E47.52237
G1 X27.834 Y60.459 E47.53943
G1 X27.44 Y59.782 E47.55253
G1 X27.294 Y59.174 E47.56298
G1 X27.293 Y39.446 E47.8929
G1 X27.407 Y38.919 E47.90192
G1 X27.625 Y38.446 E47.91063
G1 X28.183 Y37.822 E47.92463
G1 X28.445 Y38.06 F7800
G1 F1800
G1 X28.549 Y37.946 E47.9272
G1 X29.134 Y37.614 E47.93845
G1 X29.65 Y37.497 E47.9473
G1 X55.085 Y37.5 E48.37267
G1 X62.494 Y38.833 E48.49857
G1 X69.617 Y39.756 E48.61869
G1 X76.778 Y40.311 E48.73879
G1 X83.987 Y40.497 E48.85939
G1 X140.927 Y40.497 E49.81164
G1 X148.136 Y40.311 E49.93224
G1 X155.296 Y39.756 E50.05234
G1 X162.42 Y38.833 E50.17246
G1 X169.861 Y37.497 E50.2989
G1 X195.435 Y37.516 E50.72658
G1 X195.758 Y37.605 E50.73218
G1 X196.144 Y37.787 E50.73933
G1 X196.819 Y38.4 E50.75457
G1 X197.15 Y38.985 E50.76582
G1 X197.268 Y39.501 E50.77467
G1 X197.249 Y59.286 E51.10554
G1 X197.16 Y59.609 E51.11114
G1 X196.978 Y59.995 E51.11829
G1 X196.365 Y60.67 E51.13353
G1 X195.78 Y61.002 E51.14478
G1 X195.264 Y61.12 E51.15363
G1 X169.861 Y61.12 E51.57846
G1 X162.42 Y59.783 E51.70489
G1 X155.296 Y58.86 E51.82502
G1 X148.136 Y58.305 E51.94512
G1 X140.927 Y58.12 E52.06572
G1 X83.987 Y58.12 E53.01796
G1 X76.778 Y58.305 E53.13856
G1 X69.617 Y58.86 E53.25867
G1 X62.494 Y59.783 E53.37879
G1 X55.053 Y61.12 E53.50523
G1 X29.648 Y61.12 E53.93007
G1 X29.198 Y61.026 E53.93777
G1 X28.769 Y60.828 E53.94567
G1 X28.095 Y60.216 E53.9609
G1 X27.763 Y59.631 E53.97214
G1 X27.645 Y59.116 E53.98099
G1 X27.645 Y39.5 E54.30903
G1 X27.739 Y39.049 E54.31673
G1 X27.936 Y38.62 E54.32463
G1 X28.405 Y38.105 E54.33627
G1 X28.664 Y38.345 F7800
G1 F1800
G1 X28.789 Y38.21 E54.33935
G1 X29.282 Y37.939 E54.34875
G1 X29.669 Y37.852 E54.35538
G1 X55.069 Y37.855 E54.78016
G1 X62.44 Y39.185 E54.90542
G1 X69.581 Y40.11 E55.02584
G1 X76.759 Y40.666 E55.14625
G1 X83.982 Y40.852 E55.26708
G1 X140.932 Y40.852 E56.21947
G1 X148.154 Y40.666 E56.3403
G1 X155.333 Y40.11 E56.46071
G1 X162.474 Y39.185 E56.58114
G1 X169.877 Y37.852 E56.70693
G1 X195.366 Y37.866 E57.1332
G1 X195.621 Y37.933 E57.13761
G1 X195.967 Y38.097 E57.144
G1 X196.555 Y38.64 E57.1574
G1 X196.826 Y39.133 E57.1668
G1 X196.913 Y39.52 E57.17343
G1 X196.899 Y59.218 E57.50285
G1 X196.831 Y59.472 E57.50725
G1 X196.668 Y59.818 E57.51365
G1 X196.125 Y60.407 E57.52705
G1 X195.632 Y60.678 E57.53645
G1 X195.245 Y60.764 E57.54308
G1 X169.877 Y60.764 E57.96733
G1 X162.474 Y59.432 E58.09312
G1 X155.333 Y58.506 E58.21354
G1 X148.154 Y57.95 E58.33395
G1 X140.932 Y57.764 E58.45478
G1 X83.982 Y57.764 E59.40718
G1 X76.759 Y57.95 E59.52801
G1 X69.581 Y58.506 E59.64842
G1 X62.44 Y59.432 E59.76884
G1 X55.037 Y60.764 E59.89463
G1 X29.668 Y60.764 E60.31888
G1 X29.294 Y60.683 E60.32528
G1 X28.947 Y60.519 E60.3317
G1 X28.358 Y59.976 E60.3451
G1 X28.087 Y59.483 E60.3545
G1 X28.001 Y59.096 E60.36113
G1 X28.001 Y39.519 E60.68853
G1 X28.081 Y39.145 E60.69493
G1 X28.245 Y38.798 E60.70135
G1 X28.624 Y38.389 E60.71067
G1 X28.88 Y38.631 F7800
G1 F1800
G1 X29.026 Y38.476 E60.71422
G1 X29.425 Y38.265 E60.72177
G1 X29.687 Y38.208 E60.72626
G1 X55.053 Y38.211 E61.15046
G1 X62.385 Y39.536 E61.27508
G1 X69.544 Y40.464 E61.3958
G1 X76.741 Y41.021 E61.51651
G1 X83.977 Y41.208 E61.63757
G1 X140.936 Y41.208 E62.59012
G1 X148.173 Y41.021 E62.71118
G1 X155.369 Y40.464 E62.8319
G1 X162.528 Y39.536 E62.95262
G1 X169.893 Y38.208 E63.07777
G1 X195.301 Y38.216 E63.50269
G1 X195.485 Y38.263 E63.50586
G1 X195.789 Y38.406 E63.51147
G1 X196.289 Y38.877 E63.52296
G1 X196.5 Y39.276 E63.53051
G1 X196.557 Y39.538 E63.535
G1 X196.549 Y59.153 E63.86302
G1 X196.502 Y59.337 E63.86619
G1 X196.359 Y59.64 E63.87181
G1 X195.888 Y60.14 E63.88329
G1 X195.489 Y60.352 E63.89084
G1 X195.227 Y60.408 E63.89533
G1 X169.893 Y60.408 E64.319
G1 X162.528 Y59.08 E64.44415
G1 X155.369 Y58.152 E64.56487
G1 X148.173 Y57.595 E64.68559
G1 X140.936 Y57.408 E64.80665
G1 X83.977 Y57.408 E65.7592
G1 X76.741 Y57.595 E65.88026
G1 X69.544 Y58.152 E66.00097
G1 X62.385 Y59.08 E66.1217
G1 X55.021 Y60.408 E66.24684
G1 X29.687 Y60.408 E66.67052
G1 X29.427 Y60.353 E66.67496
G1 X29.125 Y60.21 E66.68055
G1 X28.625 Y59.739 E66.69203
G1 X28.413 Y59.34 E66.69958
G1 X28.356 Y59.078 E66.70407
G1 X28.356 Y39.538 E67.03085
G1 X28.412 Y39.278 E67.03529
G1 X28.555 Y38.976 E67.04088
G1 X28.839 Y38.674 E67.04781
G1 X29.092 Y38.919 F7800
G1 F1800
G1 X29.259 Y38.747 E67.05182
G1 X29.562 Y38.593 E67.05751
G1 X29.705 Y38.563 E67.05994
G1 X55.037 Y38.566 E67.48359
G1 X62.331 Y39.888 E67.60755
G1 X69.507 Y40.818 E67.72857
G1 X76.723 Y41.377 E67.8496
G1 X83.973 Y41.563 E67.97089
G1 X140.941 Y41.563 E68.92359
