; generated by PrusaSlicer 2.5.0+MacOS-x64 on 2023-06-20 at 11:17:52 UTC

; 

; external perimeters extrusion width = 0.45mm
; perimeters extrusion width = 0.45mm
; infill extrusion width = 0.45mm
; solid infill extrusion width = 0.45mm
; top infill extrusion width = 0.40mm
; first layer extrusion width = 0.42mm

; external perimeters extrusion width = 0.45mm
; perimeters extrusion width = 0.45mm
; infill extrusion width = 0.45mm
; solid infill extrusion width = 0.45mm
; top infill extrusion width = 0.40mm
; first layer extrusion width = 0.42mm

; external perimeters extrusion width = 0.45mm
; perimeters extrusion width = 0.45mm
; infill extrusion width = 0.45mm
; solid infill extrusion width = 0.45mm
; top infill extrusion width = 0.40mm
; first layer extrusion width = 0.42mm

; external perimeters extrusion width = 0.45mm
; perimeters extrusion width = 0.45mm
; infill extrusion width = 0.45mm
; solid infill extrusion width = 0.45mm
; top infill extrusion width = 0.40mm
; first layer extrusion width = 0.42mm

M107
M190 S65 ; set bed temperature and wait for it to be reached
M104 S205 ; set temperature
;TYPE:Custom
G28 ; home all axes
G1 Z5 F5000 ; lift nozzle
G0 F3000 Y50 ;avoid prime blob
M109 S205 ; set temperature and wait for it to be reached
G21 ; set units to millimeters
G90 ; use absolute coordinates
M82 ; use absolute distances for extrusion
G92 E0
; Filament gcode
M107
;LAYER_CHANGE
;Z:0.3
;HEIGHT:0.3
G1 Z.3 F7800
G1 E-2 F2400
G92 E0
G1 X22.256 Y15.796 F7800
G1 E2 F2400
;TYPE:Skirt/Brim
;WIDTH:0.42
G1 F1800
G1 X24.599 Y13.453 E2.05542
G1 X26.443 Y12.17 E2.09298
G1 X29.093 Y11.591 E2.13835
G1 X197.407 Y11.591 E4.95314
G1 X199.618 Y11.988 E4.9907
G1 X201.901 Y13.453 E5.03607
G1 X204.244 Y15.796 E5.09149
G1 X205.527 Y17.64 E5.12905
G1 X206.106 Y20.253 E5.17381
G1 X207.052 Y182.343 E7.88457
G1 X207.052 Y204.694 E8.25835
G1 X206.655 Y206.905 E8.29592
G1 X205.191 Y209.188 E8.34128
G1 X202.848 Y211.532 E8.3967
G1 X201.004 Y212.814 E8.43426
G1 X198.353 Y213.393 E8.47963
G1 X30.04 Y213.393 E11.29442
G1 X27.829 Y212.996 E11.33198
G1 X25.546 Y211.532 E11.37735
G1 X23.203 Y209.188 E11.43277
G1 X21.92 Y207.345 E11.47033
G1 X21.342 Y204.801 E11.51395
G1 X19.522 Y96.622 E13.32334
G1 X19.522 Y74.098 E13.70001
G1 X20.395 Y20.187 E14.60171
G1 X20.828 Y17.983 E14.63927
G1 X22.223 Y15.846 E14.68196
G1 E12.68196 F2400
G92 E0
G1 X31.138 Y180.324 F7800
G1 E2 F2400
G1 F1800
G1 X56.888 Y180.306 E2.43063
G1 X64.451 Y181.656 E2.55912
G1 X71.504 Y182.57 E2.67804
G1 X78.591 Y183.119 E2.79692
G1 X85.745 Y183.303 E2.9166
G1 X142.648 Y183.303 E3.86823
G1 X149.803 Y183.119 E3.98791
G1 X156.89 Y182.57 E4.10679
G1 X163.942 Y181.656 E4.22572
G1 X171.539 Y180.303 E4.35476
G1 X197.268 Y180.323 E4.78503
G1 X197.917 Y180.474 E4.79619
G1 X198.58 Y180.772 E4.80834
G1 X199.591 Y181.645 E4.83068
G1 X200.172 Y182.591 E4.84925
G1 X200.421 Y183.567 E4.86609
G1 X200.406 Y203.649 E5.20193
G1 X200.25 Y204.289 E5.21295
G1 X199.962 Y204.921 E5.22456
G1 X199.089 Y205.932 E5.2469
G1 X198.144 Y206.513 E5.26545
G1 X197.256 Y206.751 E5.28083
G1 X171.538 Y206.771 E5.71093
G1 X163.942 Y205.419 E5.83995
G1 X156.89 Y204.505 E5.95888
G1 X149.803 Y203.956 E6.07776
G1 X142.648 Y203.771 E6.19744
G1 X85.745 Y203.771 E7.14907
G1 X78.591 Y203.956 E7.26875
G1 X71.504 Y204.505 E7.38763
G1 X64.451 Y205.419 E7.50656
G1 X56.856 Y206.771 E7.63558
G1 X31.317 Y206.771 E8.06266
G1 X30.541 Y206.623 E8.07589
G1 X29.824 Y206.309 E8.08898
G1 X28.803 Y205.43 E8.1115
G1 X28.221 Y204.485 E8.13007
G1 X27.983 Y203.597 E8.14544
G1 X27.979 Y183.506 E8.48143
G1 X28.14 Y182.795 E8.49362
G1 X28.428 Y182.159 E8.5053
G1 X29.304 Y181.143 E8.52773
G1 X30.249 Y180.562 E8.54629
G1 X31.08 Y180.339 E8.56067
G1 X31.169 Y180.683 F7800
G1 F1800
G1 X56.872 Y180.662 E8.99052
G1 X64.397 Y182.008 E9.11836
G1 X71.467 Y182.924 E9.23758
G1 X78.572 Y183.474 E9.35676
G1 X85.74 Y183.659 E9.47667
G1 X142.653 Y183.659 E10.42845
G1 X149.821 Y183.474 E10.54836
G1 X156.926 Y182.924 E10.66755
G1 X163.997 Y182.008 E10.78678
G1 X171.554 Y180.659 E10.91516
G1 X197.246 Y180.679 E11.34482
G1 X197.817 Y180.815 E11.35464
G1 X198.409 Y181.085 E11.36551
G1 X199.336 Y181.894 E11.38609
G1 X199.854 Y182.751 E11.40285
G1 X200.065 Y183.589 E11.41729
G1 X200.055 Y203.587 E11.75173
G1 X199.919 Y204.158 E11.76155
G1 X199.65 Y204.749 E11.77242
G1 X198.84 Y205.676 E11.79299
G1 X197.983 Y206.195 E11.80974
G1 X197.189 Y206.401 E11.82347
G1 X171.554 Y206.416 E12.25218
G1 X163.997 Y205.067 E12.38056
G1 X156.926 Y204.151 E12.49979
G1 X149.821 Y203.601 E12.61897
G1 X142.653 Y203.416 E12.73888
G1 X85.74 Y203.416 E13.69066
G1 X78.572 Y203.601 E13.81057
G1 X71.467 Y204.151 E13.92976
G1 X64.397 Y205.067 E14.04899
G1 X56.84 Y206.416 E14.17736
G1 X31.334 Y206.416 E14.60391
G1 X30.665 Y206.289 E14.61529
G1 X29.992 Y205.994 E14.62759
G1 X29.058 Y205.181 E14.64829
G1 X28.539 Y204.324 E14.66504
G1 X28.333 Y203.53 E14.67877
G1 X28.33 Y183.563 E15.01268
G1 X28.471 Y182.925 E15.02362
G1 X28.741 Y182.33 E15.03454
G1 X29.553 Y181.398 E15.0552
G1 X30.41 Y180.88 E15.07195
G1 X31.111 Y180.698 E15.08406
G1 X31.197 Y181.042 F7800
G1 F1800
G1 X31.269 Y181.024 E15.0853
G1 X56.856 Y181.018 E15.51322
G1 X64.343 Y182.359 E15.64041
G1 X71.43 Y183.278 E15.75993
G1 X78.554 Y183.83 E15.87942
G1 X85.736 Y184.015 E15.99956
G1 X142.658 Y184.015 E16.95149
G1 X149.839 Y183.83 E17.07163
G1 X156.963 Y183.278 E17.19112
G1 X164.051 Y182.359 E17.31065
G1 X171.57 Y181.015 E17.43839
G1 X197.223 Y181.034 E17.86741
G1 X197.714 Y181.156 E17.87586
G1 X198.235 Y181.396 E17.88546
G1 X199.079 Y182.141 E17.90427
G1 X199.534 Y182.909 E17.9192
G1 X199.715 Y183.651 E17.93198
G1 X199.7 Y203.564 E18.265
G1 X199.578 Y204.055 E18.27345
G1 X199.338 Y204.576 E18.28305
G1 X198.593 Y205.419 E18.30187
G1 X197.825 Y205.875 E18.3168
G1 X197.125 Y206.051 E18.32888
G1 X171.569 Y206.06 E18.75626
G1 X164.051 Y204.716 E18.88398
G1 X156.963 Y203.797 E19.00351
G1 X149.839 Y203.245 E19.123
G1 X142.658 Y203.06 E19.24314
G1 X85.736 Y203.06 E20.19508
G1 X78.554 Y203.245 E20.31522
G1 X71.43 Y203.797 E20.43471
G1 X64.342 Y204.716 E20.55423
G1 X56.824 Y206.06 E20.68196
G1 X31.352 Y206.06 E21.10795
G1 X30.754 Y205.944 E21.11814
G1 X30.162 Y205.681 E21.12897
G1 X29.315 Y204.934 E21.14785
G1 X28.859 Y204.166 E21.16279
G1 X28.683 Y203.465 E21.17487
G1 X28.682 Y183.619 E21.50677
G1 X28.803 Y183.054 E21.51644
G1 X29.054 Y182.501 E21.52658
G1 X29.8 Y181.655 E21.54545
G1 X30.568 Y181.2 E21.56038
G1 X31.139 Y181.057 E21.57022
G1 X31.222 Y181.401 F7800
G1 F1800
G1 X31.331 Y181.375 E21.5721
G1 X56.841 Y181.373 E21.99872
G1 X64.289 Y182.711 E22.12526
G1 X71.394 Y183.632 E22.24508
G1 X78.536 Y184.185 E22.36488
G1 X85.731 Y184.37 E22.48525
G1 X142.662 Y184.37 E23.43734
G1 X149.858 Y184.185 E23.55771
G1 X157 Y183.632 E23.6775
G1 X164.105 Y182.711 E23.79733
G1 X171.585 Y181.37 E23.92442
G1 X197.2 Y181.39 E24.35278
G1 X197.608 Y181.496 E24.35983
G1 X198.06 Y181.707 E24.36818
G1 X198.82 Y182.386 E24.38522
G1 X199.213 Y183.063 E24.39831
G1 X199.364 Y183.711 E24.40944
G1 X199.344 Y203.54 E24.74106
G1 X199.238 Y203.949 E24.74811
G1 X199.027 Y204.401 E24.75646
G1 X198.348 Y205.16 E24.7735
G1 X197.671 Y205.554 E24.78659
G1 X197.063 Y205.7 E24.79705
G1 X171.585 Y205.705 E25.22313
G1 X164.105 Y204.364 E25.35021
G1 X157 Y203.443 E25.47004
G1 X149.858 Y202.89 E25.58983
G1 X142.662 Y202.705 E25.7102
G1 X85.731 Y202.705 E26.66229
G1 X78.536 Y202.89 E26.78266
G1 X71.394 Y203.443 E26.90246
G1 X64.288 Y204.364 E27.02228
G1 X56.808 Y205.705 E27.14937
G1 X31.37 Y205.705 E27.57479
G1 X30.844 Y205.599 E27.58375
G1 X30.334 Y205.369 E27.59311
G1 X29.574 Y204.689 E27.61017
G1 X29.18 Y204.011 E27.62327
G1 X29.034 Y203.404 E27.63373
G1 X29.033 Y183.676 E27.96365
G1 X29.147 Y183.148 E27.97267
G1 X29.365 Y182.675 E27.98138
G1 X30.045 Y181.914 E27.99845
G1 X30.723 Y181.521 E28.01155
G1 X31.163 Y181.415 E28.01913
G1 X31.242 Y181.76 F7800
G1 F1800
G1 X31.389 Y181.726 E28.02166
G1 X56.825 Y181.729 E28.44702
G1 X64.234 Y183.062 E28.57293
G1 X71.357 Y183.985 E28.69304
G1 X78.517 Y184.54 E28.81315
G1 X85.726 Y184.726 E28.93375
G1 X142.667 Y184.726 E29.88599
G1 X149.876 Y184.54 E30.00659
G1 X157.036 Y183.985 E30.12669
G1 X164.159 Y183.062 E30.24682
G1 X171.601 Y181.726 E30.37326
G1 X197.174 Y181.746 E30.80093
G1 X197.497 Y181.834 E30.80653
G1 X197.884 Y182.017 E30.81368
G1 X198.559 Y182.629 E30.82892
G1 X198.89 Y183.214 E30.84017
G1 X199.008 Y183.73 E30.84902
G1 X198.989 Y203.515 E31.1799
G1 X198.9 Y203.838 E31.1855
G1 X198.718 Y204.225 E31.19264
G1 X198.105 Y204.899 E31.20789
G1 X197.52 Y205.231 E31.21914
G1 X197.004 Y205.349 E31.22798
G1 X171.601 Y205.349 E31.65281
G1 X164.159 Y204.012 E31.77925
G1 X157.036 Y203.089 E31.89937
G1 X149.876 Y202.535 E32.01947
G1 X142.667 Y202.349 E32.14008
G1 X85.726 Y202.349 E33.09232
G1 X78.517 Y202.535 E33.21292
G1 X71.357 Y203.089 E33.33302
G1 X64.234 Y204.012 E33.45314
G1 X56.792 Y205.349 E33.57958
G1 X31.388 Y205.349 E34.00443
G1 X30.937 Y205.256 E34.01213
G1 X30.509 Y205.058 E34.02002
G1 X29.835 Y204.446 E34.03525
G1 X29.503 Y203.86 E34.0465
G1 X29.385 Y203.345 E34.05534
G1 X29.385 Y183.729 E34.38339
G1 X29.478 Y183.278 E34.39109
G1 X29.676 Y182.85 E34.39898
G1 X30.288 Y182.175 E34.41421
G1 X30.874 Y181.844 E34.42546
G1 X31.183 Y181.773 E34.43078
G1 X31.26 Y182.115 F7800
G1 F1800
G1 X31.408 Y182.081 E34.43332
G1 X56.809 Y182.084 E34.85811
G1 X64.18 Y183.414 E34.98336
G1 X71.321 Y184.339 E35.10378
G1 X78.499 Y184.895 E35.22419
G1 X85.722 Y185.082 E35.34502
G1 X142.671 Y185.082 E36.29742
G1 X149.894 Y184.895 E36.41825
G1 X157.073 Y184.339 E36.53866
G1 X164.214 Y183.414 E36.65908
G1 X171.617 Y182.082 E36.78487
G1 X197.106 Y182.095 E37.21115
G1 X197.361 Y182.163 E37.21555
G1 X197.707 Y182.326 E37.22195
G1 X198.295 Y182.87 E37.23534
G1 X198.566 Y183.362 E37.24475
G1 X198.653 Y183.749 E37.25138
G1 X198.639 Y203.447 E37.58079
G1 X198.571 Y203.702 E37.5852
G1 X198.408 Y204.047 E37.5916
G1 X197.865 Y204.636 E37.60499
G1 X197.372 Y204.907 E37.61439
G1 X196.985 Y204.993 E37.62102
G1 X171.617 Y204.993 E38.04527
G1 X164.214 Y203.661 E38.17106
G1 X157.073 Y202.736 E38.29148
G1 X149.894 Y202.18 E38.41189
G1 X142.671 Y201.993 E38.53272
G1 X85.722 Y201.993 E39.48512
G1 X78.499 Y202.18 E39.60595
G1 X71.321 Y202.736 E39.72636
G1 X64.179 Y203.661 E39.84678
G1 X56.777 Y204.993 E39.97257
G1 X31.408 Y204.993 E40.39683
G1 X31.034 Y204.913 E40.40323
G1 X30.687 Y204.749 E40.40965
G1 X30.098 Y204.205 E40.42304
G1 X29.827 Y203.713 E40.43245
G1 X29.741 Y203.326 E40.43908
G1 X29.741 Y183.749 E40.76647
G1 X29.821 Y183.375 E40.77287
G1 X29.985 Y183.027 E40.77929
G1 X30.529 Y182.439 E40.79269
G1 X31.021 Y182.168 E40.80209
G1 X31.201 Y182.128 E40.80517
G1 X31.275 Y182.47 F7800
G1 F1800
G1 X31.427 Y182.437 E40.80776
G1 X56.793 Y182.44 E41.23197
G1 X64.125 Y183.766 E41.35658
G1 X71.284 Y184.693 E41.4773
G1 X78.481 Y185.251 E41.59802
G1 X85.717 Y185.437 E41.71908
G1 X142.676 Y185.437 E42.67163
G1 X149.913 Y185.251 E42.79269
G1 X157.109 Y184.693 E42.9134
G1 X164.268 Y183.766 E43.03413
G1 X171.633 Y182.437 E43.15927
G1 X197.041 Y182.445 E43.58419
G1 X197.225 Y182.492 E43.58737
G1 X197.529 Y182.635 E43.59298
G1 X198.028 Y183.107 E43.60447
G1 X198.24 Y183.505 E43.61202
G1 X198.297 Y183.768 E43.6165
G1 X198.289 Y203.382 E43.94453
G1 X198.242 Y203.566 E43.9477
G1 X198.099 Y203.869 E43.95331
G1 X197.628 Y204.369 E43.9648
G1 X197.229 Y204.581 E43.97235
G1 X196.966 Y204.638 E43.97684
G1 X171.633 Y204.638 E44.40051
G1 X164.268 Y203.309 E44.52565
G1 X157.109 Y202.382 E44.64638
G1 X149.913 Y201.824 E44.76709
G1 X142.676 Y201.638 E44.88815
G1 X85.717 Y201.638 E45.8407
G1 X78.481 Y201.824 E45.96176
G1 X71.284 Y202.382 E46.08248
G1 X64.125 Y203.309 E46.2032
G1 X56.761 Y204.638 E46.32835
G1 X31.426 Y204.638 E46.75202
G1 X31.167 Y204.582 E46.75646
G1 X30.865 Y204.44 E46.76205
G1 X30.365 Y203.968 E46.77354
G1 X30.153 Y203.569 E46.78109
G1 X30.096 Y203.307 E46.78558
G1 X30.096 Y183.767 E47.11235
G1 X30.152 Y183.508 E47.11679
G1 X30.295 Y183.205 E47.12238
G1 X30.766 Y182.706 E47.13387
G1 X31.165 Y182.494 E47.14142
G1 X31.217 Y182.483 E47.14231
G1 X31.302 Y182.823 F7800
G1 F1800
G1 X31.445 Y182.793 E47.14475
G1 X56.777 Y182.796 E47.56839
G1 X64.071 Y184.117 E47.69236
G1 X71.247 Y185.047 E47.81338
G1 X78.462 Y185.606 E47.9344
G1 X85.713 Y185.793 E48.05569
G1 X142.681 Y185.793 E49.0084
G1 X149.931 Y185.606 E49.12969
G1 X157.146 Y185.047 E49.25071
G1 X164.323 Y184.117 E49.37173
G1 X171.649 Y182.793 E49.49623
G1 X196.981 Y182.796 E49.91988
G1 X197.092 Y182.822 E49.92178
G1 X197.349 Y182.944 E49.92654
G1 X197.758 Y183.339 E49.93605
G1 X197.911 Y183.643 E49.94174
G1 X197.941 Y183.785 E49.94418
G1 X197.938 Y203.322 E50.2709
G1 X197.912 Y203.432 E50.2728
G1 X197.79 Y203.69 E50.27756
G1 X197.395 Y204.099 E50.28707
G1 X197.091 Y204.252 E50.29276
G1 X196.949 Y204.282 E50.2952
G1 X171.649 Y204.282 E50.7183
G1 X164.323 Y202.958 E50.8428
G1 X157.146 Y202.028 E50.96383
G1 X149.931 Y201.469 E51.08485
G1 X142.681 Y201.282 E51.20614
G1 X85.713 Y201.282 E52.15884
G1 X78.462 Y201.469 E52.28013
G1 X71.247 Y202.028 E52.40115
G1 X64.07 Y202.958 E52.52218
G1 X56.745 Y204.282 E52.64668
G1 X31.445 Y204.282 E53.06979
G1 X31.3 Y204.252 E53.07226
G1 X31.044 Y204.131 E53.07699
G1 X30.635 Y203.736 E53.0865
G1 X30.482 Y203.432 E53.09219
G1 X30.452 Y203.29 E53.09462
G1 X30.452 Y183.785 E53.4208
G1 X30.482 Y183.64 E53.42328
G1 X30.603 Y183.385 E53.428
G1 X30.998 Y182.976 E53.43751
G1 X31.249 Y182.85 E53.4422
G1 X31.4 Y183.169 F7800
G1 F1800
G1 X31.461 Y183.148 E53.44329
G1 X56.761 Y183.151 E53.86639
G1 X64.016 Y184.469 E53.9897
G1 X71.211 Y185.401 E54.11103
G1 X78.444 Y185.961 E54.23236
G1 X85.708 Y186.148 E54.35388
G1 X142.685 Y186.148 E55.30674
G1 X149.949 Y185.961 E55.42826
G1 X157.183 Y185.401 E55.54959
G1 X164.377 Y184.469 E55.67092
G1 X171.665 Y183.148 E55.79477
G1 X196.932 Y183.148 E56.21733
G1 X197.168 Y183.252 E56.22164
G1 X197.482 Y183.566 E56.22907
G1 X197.586 Y183.802 E56.23338
G1 X197.586 Y203.273 E56.559
G1 X197.482 Y203.509 E56.56331
G1 X197.168 Y203.823 E56.57074
G1 X196.932 Y203.926 E56.57505
G1 X171.665 Y203.926 E56.99761
G1 X164.377 Y202.606 E57.12146
G1 X157.183 Y201.674 E57.24279
G1 X149.949 Y201.114 E57.36412
G1 X142.685 Y200.926 E57.48564
G1 X85.708 Y200.926 E58.4385
G1 X78.444 Y201.114 E58.56002
G1 X71.211 Y201.674 E58.68135
G1 X64.016 Y202.606 E58.80268
G1 X56.729 Y203.926 E58.92653
G1 X31.461 Y203.926 E59.34909
G1 X31.225 Y203.823 E59.3534
G1 X30.911 Y203.509 E59.36083
G1 X30.808 Y203.273 E59.36514
G1 X30.808 Y183.802 E59.69076
G1 X30.911 Y183.566 E59.69507
G1 X31.225 Y183.252 E59.7025
G1 X31.345 Y183.195 E59.70472
G1 X31.479 Y183.518 F7800
G1 F1800
G1 X31.514 Y183.504 E59.70535
G1 X56.745 Y183.507 E60.1273
G1 X63.961 Y184.82 E60.24997
G1 X71.174 Y185.755 E60.3716
G1 X78.426 Y186.316 E60.49324
G1 X85.704 Y186.504 E60.61499
G1 X142.69 Y186.504 E61.56799
G1 X149.968 Y186.316 E61.68974
G1 X157.219 Y185.755 E61.81138
G1 X164.432 Y184.82 E61.93302
G1 X171.681 Y183.504 E62.05622
G1 X196.879 Y183.504 E62.47763
G1 X196.945 Y183.531 E62.47881
G1 X197.203 Y183.789 E62.48492
G1 X197.23 Y183.855 E62.4861
G1 X197.23 Y203.22 E62.80996
G1 X197.203 Y203.285 E62.81114
G1 X196.945 Y203.544 E62.81725
G1 X196.879 Y203.571 E62.81844
G1 X171.681 Y203.571 E63.23985
G1 X164.432 Y202.255 E63.36305
G1 X157.219 Y201.32 E63.48468
G1 X149.968 Y200.758 E63.60632
G1 X142.69 Y200.571 E63.72807
G1 X85.704 Y200.571 E64.68108
G1 X78.426 Y200.758 E64.80283
G1 X71.174 Y201.32 E64.92446
G1 X63.961 Y202.255 E65.0461
G1 X56.713 Y203.571 E65.1693
G1 X31.514 Y203.571 E65.59071
G1 X31.449 Y203.544 E65.59189
G1 X31.19 Y203.285 E65.598
G1 X31.163 Y203.22 E65.59919
G1 X31.163 Y183.855 E65.92304
G1 X31.19 Y183.789 E65.92423
G1 X31.43 Y183.55 E65.92989
G1 X31.623 Y183.86 F7800
G1 F1800
G1 X56.729 Y183.862 E66.34974
G1 X63.906 Y185.172 E66.47176
G1 X71.138 Y186.108 E66.5937
G1 X78.407 Y186.672 E66.71564
G1 X85.699 Y186.86 E66.83762
G1 X142.694 Y186.86 E67.79078
G1 X149.986 Y186.672 E67.91276
G1 X157.256 Y186.108 E68.03471
G1 X164.487 Y185.172 E68.15665
G1 X171.697 Y183.86 E68.2792
G1 X196.77 Y183.86 E68.69852
