; generated by PrusaSlicer 2.6.0+MacOS-x64 on 2024-01-26 at 13:40:28 UTC

; 

; external perimeters extrusion width = 0.45mm
; perimeters extrusion width = 0.45mm
; infill extrusion width = 0.45mm
; solid infill extrusion width = 0.45mm
; top infill extrusion width = 0.40mm
; support material extrusion width = 0.38mm
; first layer extrusion width = 0.42mm

M201 X500 Y500 Z100 E5000 ; sets maximum accelerations, mm/sec^2
M203 X500 Y500 Z10 E60 ; sets maximum feedrates, mm / sec
M204 S500 T1000 ; sets acceleration (S) and retract acceleration (R), mm/sec^2
M205 X8.00 Y8.00 Z0.40 E5.00 ; sets the jerk limits, mm/sec
M205 S0 T0 ; sets the minimum extruding and travel feed rate, mm/sec
;TYPE:Custom
G90 ; use absolute coordinates
M83 ; extruder relative mode
M140 S72 ; set final bed temp
M104 S150 ; set temporary nozzle temp to prevent oozing during homing
G4 S10 ; allow partial nozzle warmup
G28 ; home all axis
G1 Z50 F240
G1 X2 Y10 F3000
M104 S210 ; set final nozzle temp
M190 S72 ; wait for bed temp to stabilize
M109 S210 ; wait for nozzle temp to stabilize
G1 Z0.28 F240
G92 E0
G1 Y140 E10 F1500 ; prime the nozzle
G1 X2.3 F5000
G92 E0
G1 Y10 E10 F1200 ; prime the nozzle
G92 E0
G21 ; set units to millimeters
G90 ; use absolute coordinates
M83 ; use relative distances for extrusion
; Filament gcode
M107
;LAYER_CHANGE
;Z:0.2
;HEIGHT:0.2
;BEFORE_LAYER_CHANGE
G92 E0
;0.2


G1 E-8 F3600
G1 Z.2 F12000
;AFTER_LAYER_CHANGE
;0.2
G1 X31.17 Y101.764
G1 E8 F2400
M204 S500
;TYPE:Skirt/Brim
;WIDTH:0.42
G1 F1200
G1 X32.444 Y101.406 E.04149
G1 X58.227 Y101.39 E.80841
G1 X65.889 Y102.749 E.24399
G1 X72.897 Y103.657 E.22157
G1 X79.939 Y104.203 E.22146
G1 X87.06 Y104.387 E.22335
G1 X143.94 Y104.387 E1.78343
G1 X151.061 Y104.203 E.22335
G1 X158.103 Y103.657 E.22146
G1 X165.112 Y102.749 E.2216
G1 X172.809 Y101.386 E.24509
G1 X198.611 Y101.413 E.809
G1 X200.168 Y101.925 E.05139
G1 X200.901 Y102.439 E.02807
G1 X201.536 Y103.07 E.02807
G1 X202.227 Y104.151 E.04023
G1 X202.591 Y105.414 E.04121
G1 X202.587 Y125.611 E.63326
G1 X202.075 Y127.168 E.05139
G1 X201.561 Y127.901 E.02807
G1 X200.93 Y128.536 E.02807
G1 X199.847 Y129.228 E.0403
G1 X198.532 Y129.599 E.04284
G1 X172.807 Y129.613 E.80659
G1 X165.112 Y128.251 E.24502
G1 X158.103 Y127.343 E.2216
G1 X151.061 Y126.797 E.22146
G1 X143.94 Y126.613 E.22335
G1 X87.06 Y126.613 E1.78343
G1 X79.939 Y126.797 E.22335
G1 X72.897 Y127.343 E.22146
G1 X65.888 Y128.251 E.2216
G1 X58.193 Y129.613 E.24502
G1 X32.59 Y129.613 E.80276
G1 X31.367 Y129.315 E.03947
G1 X30.547 Y128.904 E.02876
G1 X29.455 Y127.92 E.04609
G1 X28.761 Y126.823 E.0407
G1 X28.406 Y125.556 E.04126
G1 X28.397 Y105.553 E.62718
G1 X28.591 Y104.611 E.03016
G1 X28.965 Y103.756 E.02926
G1 X30.037 Y102.495 E.05189
G1 X31.12 Y101.796 E.04042
G1 X31.322 Y102.114 F12000
G1 F1200
G1 X32.519 Y101.776 E.039
G1 X58.211 Y101.767 E.80555
G1 X65.831 Y103.122 E.24267
G1 X72.859 Y104.033 E.2222
G1 X79.92 Y104.58 E.22206
G1 X87.055 Y104.764 E.22379
G1 X143.945 Y104.764 E1.78375
G1 X151.08 Y104.58 E.22379
G1 X158.141 Y104.033 E.22206
G1 X165.17 Y103.122 E.22223
G1 X172.825 Y101.764 E.24376
G1 X198.58 Y101.79 E.80753
G1 X199.975 Y102.25 E.04606
G1 X200.647 Y102.718 E.02568
G1 X201.256 Y103.323 E.02692
G1 X201.873 Y104.282 E.03575
G1 X202.222 Y105.493 E.03952
G1 X202.21 Y125.58 E.62981
G1 X201.75 Y126.975 E.04606
G1 X201.282 Y127.647 E.02568
G1 X200.677 Y128.256 E.02692
G1 X199.717 Y128.873 E.03578
G1 X198.454 Y129.229 E.04114
G1 X172.824 Y129.236 E.80361
G1 X165.17 Y127.878 E.24373
G1 X158.141 Y126.967 E.22223
G1 X151.08 Y126.42 E.22206
G1 X143.945 Y126.236 E.22379
G1 X87.055 Y126.236 E1.78375
G1 X79.92 Y126.42 E.22379
G1 X72.859 Y126.967 E.22206
G1 X65.83 Y127.878 E.22223
G1 X58.176 Y129.236 E.24373
G1 X32.614 Y129.236 E.80148
G1 X31.48 Y128.955 E.03663
G1 X30.741 Y128.58 E.02598
G1 X29.728 Y127.659 E.04293
G1 X29.096 Y126.648 E.03738
G1 X28.776 Y125.482 E.03791
G1 X28.77 Y105.609 E.6231
G1 X28.944 Y104.743 E.0277
G1 X29.299 Y103.934 E.0277
G1 X30.304 Y102.762 E.04841
G1 X31.271 Y102.146 E.03595
G1 X31.472 Y102.465 F12000
G1 F1200
G1 X31.523 Y102.432 E.0019
G1 X32.592 Y102.147 E.03469
G1 X58.194 Y102.144 E.80273
G1 X65.774 Y103.495 E.24141
G1 X72.82 Y104.408 E.22277
G1 X79.901 Y104.956 E.22268
G1 X87.05 Y105.141 E.22423
G1 X143.95 Y105.141 E1.78406
G1 X151.099 Y104.956 E.22423
G1 X158.18 Y104.408 E.22268
G1 X165.227 Y103.495 E.2228
G1 X172.841 Y102.141 E.24248
G1 X198.55 Y102.167 E.80609
G1 X199.782 Y102.575 E.04069
G1 X200.417 Y103.018 E.02428
G1 X200.975 Y103.576 E.02474
G1 X201.518 Y104.414 E.03131
G1 X201.852 Y105.572 E.03779
G1 X201.833 Y125.55 E.6264
G1 X201.425 Y126.782 E.04069
G1 X200.982 Y127.417 E.02428
G1 X200.424 Y127.975 E.02474
G1 X199.587 Y128.518 E.03128
G1 X198.377 Y128.859 E.03942
G1 X172.841 Y128.859 E.80066
G1 X165.227 Y127.505 E.24248
G1 X158.18 Y126.592 E.2228
G1 X151.099 Y126.044 E.22268
G1 X143.95 Y125.859 E.22423
G1 X87.05 Y125.859 E1.78406
G1 X79.901 Y126.044 E.22423
G1 X72.82 Y126.592 E.22268
G1 X65.773 Y127.505 E.2228
G1 X58.159 Y128.859 E.24248
G1 X32.638 Y128.859 E.80019
G1 X31.594 Y128.595 E.03376
G1 X30.936 Y128.256 E.02321
G1 X30.003 Y127.4 E.0397
G1 X29.431 Y126.474 E.03413
G1 X29.147 Y125.409 E.03456
G1 X29.144 Y105.663 E.61912
G1 X29.298 Y104.875 E.02517
G1 X29.632 Y104.111 E.02614
G1 X30.57 Y103.031 E.04485
G1 X31.421 Y102.497 E.0315
G1 X31.618 Y102.817 F12000
G1 F1200
G1 X31.696 Y102.769 E.00287
G1 X32.662 Y102.518 E.03129
G1 X58.177 Y102.521 E.8
G1 X65.716 Y103.868 E.24012
G1 X72.781 Y104.783 E.22337
G1 X79.881 Y105.333 E.22328
G1 X87.045 Y105.518 E.2247
G1 X143.955 Y105.518 E1.78437
G1 X151.119 Y105.333 E.2247
G1 X158.219 Y104.783 E.22328
G1 X165.284 Y103.868 E.22337
G1 X172.858 Y102.518 E.24122
G1 X198.519 Y102.544 E.80458
G1 X199.59 Y102.9 E.03539
G1 X200.163 Y103.297 E.02186
G1 X200.695 Y103.829 E.02359
G1 X201.164 Y104.546 E.02686
G1 X201.482 Y105.651 E.03605
G1 X201.456 Y125.519 E.62295
G1 X201.1 Y126.59 E.03539
G1 X200.703 Y127.163 E.02186
G1 X200.171 Y127.695 E.02359
G1 X199.454 Y128.164 E.02686
G1 X198.35 Y128.482 E.03602
G1 X172.857 Y128.482 E.79932
G1 X165.284 Y127.132 E.24119
G1 X158.219 Y126.217 E.22337
G1 X151.119 Y125.667 E.22328
G1 X143.955 Y125.482 E.2247
G1 X87.045 Y125.482 E1.78437
G1 X79.881 Y125.667 E.2247
G1 X72.781 Y126.217 E.22328
G1 X65.716 Y127.132 E.22337
G1 X58.143 Y128.482 E.24119
G1 X32.662 Y128.482 E.79894
G1 X31.711 Y128.235 E.03081
G1 X31.134 Y127.934 E.02041
G1 X30.279 Y127.142 E.03654
G1 X29.768 Y126.303 E.0308
G1 X29.518 Y125.338 E.03126
G1 X29.518 Y105.716 E.61523
G1 X29.653 Y105.006 E.02266
G1 X29.966 Y104.29 E.0245
G1 X30.834 Y103.302 E.04123
G1 X31.567 Y102.848 E.02703
G1 X31.761 Y103.162 F12000
G1 F1200
G1 X31.821 Y103.126 E.00219
G1 X32.688 Y102.895 E.02813
G1 X58.16 Y102.898 E.79866
G1 X65.659 Y104.24 E.23886
G1 X72.742 Y105.158 E.22394
G1 X79.862 Y105.71 E.22391
G1 X87.04 Y105.895 E.22514
G1 X143.96 Y105.895 E1.78469
G1 X151.138 Y105.71 E.22514
G1 X158.258 Y105.158 E.22391
G1 X165.342 Y104.24 E.22397
G1 X172.874 Y102.895 E.2399
G1 X198.431 Y102.912 E.80132
G1 X199.4 Y103.227 E.03195
G1 X199.909 Y103.576 E.01935
G1 X200.415 Y104.083 E.02246
G1 X200.81 Y104.68 E.02244
G1 X201.105 Y105.678 E.03263
G1 X201.088 Y125.431 E.61934
G1 X200.773 Y126.4 E.03195
G1 X200.424 Y126.909 E.01935
G1 X199.917 Y127.415 E.02246
G1 X199.32 Y127.81 E.02244
G1 X198.322 Y128.105 E.03263
G1 X172.874 Y128.105 E.7979
G1 X165.342 Y126.76 E.2399
G1 X158.258 Y125.842 E.22397
G1 X151.138 Y125.29 E.22391
G1 X143.96 Y125.105 E.22514
G1 X87.04 Y125.105 E1.78469
G1 X79.862 Y125.29 E.22514
G1 X72.742 Y125.842 E.22391
G1 X65.658 Y126.76 E.22397
G1 X58.126 Y128.105 E.2399
G1 X32.687 Y128.105 E.79762
G1 X31.829 Y127.877 E.02784
G1 X31.334 Y127.614 E.01758
G1 X30.556 Y126.885 E.03343
G1 X30.125 Y126.179 E.02594
G1 X29.895 Y125.313 E.02809
G1 X29.895 Y105.734 E.61389
G1 X30.018 Y105.1 E.02025
G1 X30.298 Y104.471 E.02159
G1 X31.097 Y103.573 E.03769
G1 X31.71 Y103.194 E.0226
G1 X31.905 Y103.508 F12000
G1 F1200
G1 X31.947 Y103.482 E.00155
G1 X32.713 Y103.272 E.0249
G1 X58.144 Y103.275 E.79737
G1 X65.601 Y104.613 E.23754
G1 X72.703 Y105.533 E.22454
G1 X79.842 Y106.087 E.22451
G1 X87.035 Y106.272 E.22561
G1 X143.965 Y106.272 E1.785
G1 X151.158 Y106.087 E.22561
G1 X158.297 Y105.533 E.22451
G1 X165.399 Y104.613 E.22454
G1 X172.891 Y103.272 E.23864
G1 X198.401 Y103.289 E.79985
G1 X199.21 Y103.554 E.02669
G1 X199.655 Y103.855 E.01684
G1 X200.136 Y104.337 E.02135
G1 X200.458 Y104.818 E.01815
G1 X200.728 Y105.707 E.02913
G1 X200.711 Y125.401 E.61749
G1 X200.446 Y126.21 E.02669
G1 X200.145 Y126.655 E.01684
G1 X199.663 Y127.136 E.02135
G1 X199.182 Y127.458 E.01815
G1 X198.294 Y127.728 E.0291
G1 X172.891 Y127.728 E.79649
G1 X165.399 Y126.387 E.23864
G1 X158.297 Y125.467 E.22454
G1 X151.158 Y124.913 E.22451
G1 X143.965 Y124.728 E.22561
G1 X87.035 Y124.728 E1.785
G1 X79.842 Y124.913 E.22561
G1 X72.703 Y125.467 E.22451
G1 X65.601 Y126.387 E.22454
G1 X58.109 Y127.728 E.23864
G1 X32.713 Y127.728 E.79627
G1 X31.951 Y127.52 E.02477
G1 X31.536 Y127.295 E.0148
G1 X30.834 Y126.629 E.03034
G1 X30.482 Y126.053 E.02117
G1 X30.272 Y125.287 E.0249
G1 X30.272 Y105.753 E.61247
G1 X30.383 Y105.196 E.01781
G1 X30.629 Y104.654 E.01866
G1 X31.358 Y103.846 E.03412
G1 X31.854 Y103.539 E.01829
G1 X32.048 Y103.854 F12000
G1 F1200
G1 X32.74 Y103.649 E.02263
G1 X58.127 Y103.652 E.79599
G1 X65.544 Y104.986 E.23629
G1 X72.665 Y105.909 E.22514
G1 X79.823 Y106.463 E.22511
G1 X87.03 Y106.649 E.22605
G1 X143.97 Y106.649 E1.78531
G1 X151.177 Y106.463 E.22605
G1 X158.335 Y105.909 E.22511
G1 X165.457 Y104.986 E.22517
G1 X172.908 Y103.649 E.23735
G1 X198.315 Y103.657 E.79662
G1 X199.024 Y103.883 E.02333
G1 X199.402 Y104.135 E.01424
G1 X199.857 Y104.591 E.0202
G1 X200.107 Y104.958 E.01392
G1 X200.351 Y105.736 E.02557
G1 X200.343 Y125.315 E.61389
G1 X200.117 Y126.024 E.02333
G1 X199.865 Y126.402 E.01424
G1 X199.409 Y126.857 E.0202
G1 X199.042 Y127.107 E.01392
G1 X198.264 Y127.351 E.02557
G1 X172.908 Y127.351 E.79502
G1 X165.457 Y126.014 E.23735
G1 X158.335 Y125.091 E.22517
G1 X151.177 Y124.537 E.22511
G1 X143.97 Y124.351 E.22605
G1 X87.03 Y124.351 E1.78531
G1 X79.823 Y124.537 E.22605
G1 X72.665 Y125.091 E.22511
G1 X65.543 Y126.014 E.22517
G1 X58.092 Y127.351 E.23735
G1 X32.74 Y127.351 E.79489
G1 X32.076 Y127.163 E.02164
G1 X31.742 Y126.978 E.01197
G1 X31.113 Y126.374 E.02734
G1 X30.837 Y125.924 E.01655
G1 X30.649 Y125.26 E.02164
G1 X30.649 Y105.773 E.611
G1 X30.748 Y105.295 E.01531
G1 X30.958 Y104.84 E.01571
G1 X31.618 Y104.12 E.03062
G1 X31.997 Y103.885 E.01398
G1 X32.193 Y104.2 F12000
G1 F1200
G1 X32.768 Y104.026 E.01884
G1 X58.11 Y104.029 E.79458
G1 X65.486 Y105.359 E.235
G1 X72.626 Y106.284 E.22574
G1 X79.803 Y106.84 E.2257
G1 X87.026 Y107.026 E.22655
G1 X143.975 Y107.026 E1.7856
G1 X151.197 Y106.84 E.22652
G1 X158.374 Y106.284 E.2257
G1 X165.515 Y105.359 E.22577
G1 X172.924 Y104.026 E.23603
G1 X198.286 Y104.034 E.79521
G1 X198.839 Y104.212 E.01822
G1 X199.149 Y104.416 E.01164
G1 X199.58 Y104.847 E.01911
G1 X199.758 Y105.103 E.00978
G1 X199.974 Y105.767 E.02189
G1 X199.966 Y125.285 E.61197
G1 X199.788 Y125.839 E.01824
G1 X199.584 Y126.149 E.01164
G1 X199.153 Y126.58 E.01911
G1 X198.897 Y126.758 E.00978
G1 X198.233 Y126.974 E.02189
G1 X172.924 Y126.974 E.79355
G1 X165.515 Y125.641 E.23603
G1 X158.374 Y124.716 E.22577
G1 X151.197 Y124.16 E.2257
G1 X143.975 Y123.974 E.22652
G1 X87.026 Y123.974 E1.7856
G1 X79.803 Y124.16 E.22655
G1 X72.626 Y124.716 E.2257
G1 X65.485 Y125.641 E.22577
G1 X58.076 Y126.974 E.23603
G1 X32.768 Y126.974 E.79351
G1 X32.206 Y126.809 E.01836
G1 X31.951 Y126.663 E.00921
G1 X31.392 Y126.12 E.02443
G1 X31.191 Y125.793 E.01203
G1 X31.026 Y125.232 E.01833
G1 X31.026 Y105.794 E.60946
G1 X31.112 Y105.397 E.01274
G1 X31.286 Y105.029 E.01276
G1 X31.876 Y104.396 E.02713
G1 X32.142 Y104.232 E.0098
G1 X32.337 Y104.547 F12000
G1 F1200
G1 X32.798 Y104.403 E.01514
G1 X58.093 Y104.406 E.79311
G1 X65.428 Y105.732 E.23371
G1 X72.587 Y106.659 E.22634
G1 X79.784 Y107.217 E.22633
G1 X87.021 Y107.403 E.22699
G1 X143.979 Y107.403 E1.78588
G1 X151.216 Y107.217 E.22699
G1 X158.413 Y106.659 E.22633
G1 X165.572 Y105.731 E.22634
G1 X172.941 Y104.403 E.23477
G1 X198.202 Y104.403 E.79204
G1 X198.658 Y104.544 E.01497
G1 X198.898 Y104.698 E.00894
G1 X199.304 Y105.104 E.018
G1 X199.412 Y105.254 E.0058
G1 X199.597 Y105.799 E.01805
G1 X199.597 Y125.202 E.60837
G1 X199.456 Y125.658 E.01497
G1 X199.302 Y125.898 E.00894
G1 X198.896 Y126.304 E.018
G1 X198.746 Y126.412 E.0058
G1 X198.201 Y126.597 E.01805
G1 X172.941 Y126.597 E.79201
G1 X165.572 Y125.269 E.23477
G1 X158.413 Y124.341 E.22634
G1 X151.216 Y123.783 E.22633
G1 X143.979 Y123.597 E.22699
G1 X87.021 Y123.597 E1.78588
G1 X79.784 Y123.783 E.22699
G1 X72.587 Y124.341 E.22633
G1 X65.428 Y125.269 E.22634
G1 X58.059 Y126.597 E.23477
G1 X32.798 Y126.597 E.79204
G1 X32.341 Y126.456 E.015
G1 X32.164 Y126.351 E.00645
G1 X31.674 Y125.868 E.02157
G1 X31.544 Y125.658 E.00774
G1 X31.403 Y125.202 E.01497
G1 X31.403 Y105.814 E.6079
G1 X31.462 Y105.538 E.00885
G1 X31.613 Y105.218 E.01109
G1 X32.131 Y104.675 E.02353
G1 X32.286 Y104.579 E.00572
G1 X32.482 Y104.895 F12000
G1 F1200
G1 X32.829 Y104.78 E.01146
G1 X58.076 Y104.783 E.7916
G1 X65.37 Y106.104 E.23242
G1 X72.548 Y107.034 E.22694
G1 X79.764 Y107.593 E.22693
G1 X87.016 Y107.78 E.22746
G1 X143.984 Y107.78 E1.78619
G1 X151.236 Y107.593 E.22746
G1 X158.452 Y107.034 E.22693
G1 X165.63 Y106.104 E.22694
G1 X172.958 Y104.78 E.23348
G1 X198.171 Y104.78 E.79054
G1 X198.515 Y104.893 E.01135
G1 X198.644 Y104.978 E.00484
G1 X199.025 Y105.358 E.01687
G1 X199.088 Y105.448 E.00344
G1 X199.22 Y105.831 E.0127
G1 X199.22 Y125.171 E.60639
G1 X199.107 Y125.515 E.01135
G1 X199.022 Y125.644 E.00484
G1 X198.642 Y126.025 E.01687
G1 X198.552 Y126.088 E.00344
G1 X198.169 Y126.22 E.0127
G1 X172.958 Y126.22 E.79047
G1 X165.63 Y124.896 E.23348
G1 X158.452 Y123.966 E.22694
G1 X151.236 Y123.407 E.22693
G1 X143.984 Y123.22 E.22746
G1 X87.016 Y123.22 E1.78619
G1 X79.765 Y123.407 E.22743
G1 X72.548 Y123.966 E.22696
G1 X65.37 Y124.896 E.22694
G1 X58.042 Y126.22 E.23348
G1 X32.829 Y126.22 E.79054
G1 X32.483 Y126.106 E.01142
G1 X32.383 Y126.044 E.00369
G1 X31.956 Y125.617 E.01893
G1 X31.894 Y125.517 E.00369
G1 X31.78 Y125.171 E.01142
G1 X31.78 Y105.833 E.60633
G1 X31.812 Y105.679 E.00493
G1 X31.94 Y105.409 E.00937
G1 X32.431 Y104.926 E.0216
G1 X32.637 Y105.239 F12000
G1 F1200
G1 X32.864 Y105.157 E.00757
G1 X58.059 Y105.16 E.78997
G1 X65.312 Y106.477 E.23113
G1 X72.509 Y107.409 E.22754
G1 X79.745 Y107.97 E.22756
G1 X87.011 Y108.157 E.2279
G1 X143.989 Y108.157 E1.78651
G1 X151.255 Y107.97 E.2279
G1 X158.491 Y107.409 E.22756
G1 X165.688 Y106.477 E.22754
G1 X172.975 Y105.157 E.2322
G1 X198.136 Y105.157 E.78891
G1 X198.39 Y105.257 E.00856
G1 X198.743 Y105.61 E.01565
G1 X198.843 Y105.864 E.00856
G1 X198.843 Y125.136 E.60426
G1 X198.743 Y125.39 E.00856
G1 X198.39 Y125.743 E.01565
G1 X198.136 Y125.843 E.00856
G1 X172.975 Y125.843 E.78891
G1 X165.688 Y124.523 E.2322
G1 X158.491 Y123.591 E.22754
G1 X151.255 Y123.03 E.22756
G1 X143.989 Y122.843 E.2279
G1 X87.011 Y122.843 E1.78651
G1 X79.745 Y123.03 E.2279
G1 X72.509 Y123.591 E.22756
G1 X65.312 Y124.523 E.22754
G1 X58.025 Y125.843 E.2322
G1 X32.864 Y125.843 E.78891
G1 X32.61 Y125.743 E.00856
G1 X32.257 Y125.39 E.01565
G1 X32.157 Y125.136 E.00856
G1 X32.157 Y105.85 E.6047
G1 X32.267 Y105.6 E.00856
G1 X32.591 Y105.276 E.01437
G1 X32.837 Y105.563 F12000
G1 F1200
G1 X32.906 Y105.534 E.00235
G1 X58.042 Y105.537 E.78812
G1 X65.254 Y106.85 E.22984
G1 X72.471 Y107.785 E.22818
G1 X79.726 Y108.347 E.22816
G1 X87.006 Y108.534 E.22833
G1 X143.994 Y108.534 E1.78682
G1 X151.274 Y108.347 E.22833
G1 X158.529 Y107.785 E.22816
G1 X165.746 Y106.85 E.22818
G1 X172.992 Y105.534 E.23091
G1 X198.094 Y105.534 E.78706
G1 X198.163 Y105.563 E.00235
G1 X198.437 Y105.837 E.01215
G1 X198.466 Y105.906 E.00235
G1 X198.466 Y125.094 E.60163
G1 X198.437 Y125.163 E.00235
G1 X198.163 Y125.437 E.01215
G1 X198.094 Y125.466 E.00235
G1 X172.992 Y125.466 E.78706
G1 X165.746 Y124.15 E.23091
